**kern
*clefG2
*k[b-]
*F:
*M2/4
4aa 4ccc
=1
[8f'L 8ff 8aa
8f'J_ 8cc 8ff
8f'L_ 8ff 8aa
8f'J] 8aa 8ccc
=2
4c 4e 4g 4gg 4bb-
4f 4ff 4aa
=3
[8c'L 8ee 8gg
8c'J] 8dd 8ff
[8c'L 8cc 8ee
8c'J] 8dd 8ff
=4
8c 8ee 8gg
8r
4aa 4ccc
=5
[8f'L 8ff 8aa
8f'J_ 8cc 8ff
8f'L_ 8ff 8aa
8f'J] 8aa 8ccc
=6
4c 4e 4g 4gg 4bb-
4f 4a 4ff 4aa
=7
8B-L 8dd 8gg
8B-J 8dd 8gg
8cL 8b- 8ee 8ff
[16cL 16b- 16dd
16cJJ] 16ee
=8
[8FL 8a 8ff
8FJ]
4a 4cc
=9
[8FL [8c 8f 8a
8FJ] 8c] 8f
8fL 8a
8aJ 8cc
=10
4E 4c 4g 4a 4b- 4cc
4F 4c 4f 4a
=11
8CL 8c 8e 8g
8dJ 8f
8CL 8c 8e
8dJ 8f
=12
4C 4e 4g
4a 4cc
=13
[8FL [8c 8f 8a
8FJ] 8c] 8f
8fL 8a
8aJ 8cc
=14
4E 4c 4g 4a 4b- 4cc
4F 4c 4f 4a
=15
8GL 8e 8g
8eJ 8g
8GGL 8f 8a
8dJ 8bn
=16
[4C 4e 4cc
8CL_ 8f 8dd
8CJ] 8g 8ee
=17
8GL 8e 8cc
16ggJk
16r
8GL 8d 8bn
16ggJk
16r
=18
[4C 4e 4cc
8CL_ 8f 8dd
8CJ] 8g 8ee
=19
8GL 8e 8cc
16ggJk
16r
8GL 8d 8bn
16ggJk
16r
=20
4C; 4e 4cc
4cc
=21
8FL 8c 8a
8fJ
8FL 8c 8a 8ff
8ccJ
=22
8EL 8c [8g [8b- 8cc
8gJ] 8b-]
8FL 8c [8f [8a
8fJ] 8a]
=23
8B-L 8c 8e 8g
8AJ 8c 8f
8EL 8c 8g 8b- 8cc
8FJ 8c 8f 8a
=24
4C 4c 4e 4g
4cc
=25
[8FL [8c 8a 8cc
8FJ_ 8c_ 8a
16FLL_ 16c_ 16ff
16FJ_ 16c_ 16ee
16FL_ 16c_ 16dd
16FJJ] 16c] 16cc
=26
4E 4c 4g 4b- 4cc
4F 4c 4f 4a
=27
[8GL [8Bn 8g
8GJ_ 8B_ 8ff
8GL_ 8B_ 8ee
8GJ] 8B] 8f 8dd
=28
[8CL 8E [8e [8cc
8CJ] 8G 8e] 8cc]
[16CLL [16E 16gg
16CJ_ 16E] 16ff
16CL_ [16G 16ee
16CJJ] 16G] 16dd
=29
[16CLL [16E 16cc 16dd
16CJ_ 16E] 16bn
16CL_ [16G 16cc
16CJJ] 16G] 16ee
[16GGLL [16F 16dd 16ee
16GGJ_ 16F] 16cc
16GGL_ [16G 16dd
16GGJJ] 16G] 16bn
=30
[8CL 8E [8cc
8CJ] 8G 8cc]
[16CLL [16E 16gg
16CJ_ 16E] 16ff
16CL_ [16G 16ee
16CJJ] 16G] 16dd
=31
[16CLL [16E 16cc 16dd
16CJ_ 16E] 16bn
16CL_ [16G 16cc
16CJJ] 16G] 16ee
[16GGLL [16F 16dd 16ee
16GGJ_ 16F] 16cc
16GGL_ [16G 16dd
16GGJJ] 16G] 16bn
=32
8C 8E 8cc
8r
4a 4cc
=33
8DL 8d 8b- 8dd
8aJ 8cc
8D'L 8d 8g 8b-
8f#X'J 8a
=34
8G 8d 8g 8b-
8r
8GL [8g [8b-
8gJ] 8b-]
=35
8CL 8c 8a 8cc
8gJ 8b-
8C'L 8c 8f 8a
8e'J 8g
=36
8F 8c 8f 8a
8r
4a 4cc
=37
[8FL [8c 8f 8a
8FJ_ 8c_ 8f
8FL_ 8c_ 8f 8a
8FJ] 8c] 8a 8cc
=38
4E 4c 4g 4a 4b- 4cc
4F 4c 4f 4a
=39
8BB-'L 8B- 8f 8dd
8BB-'J 8B- 8f 8dd
8C'L 8A 8f 8cc
8C'J 8G 8B- 8e
=40
4F 4A 4f
4r
=41
[12GL [12B- 12cc
24Gk] 24B-] [24ee
[24CK 24ee]
12CJ] 12dd
[12GL [12B- 12cc
24Gk] 24B-] [24dd
[24CK 24dd]
12CJ] 12ee
=42
[12FL [12A 12ff
24Fk] 24A] [24aa
[24CK 24aa]
12CJ] 12gg
[12FL [12A 12ff
24Fk] 24A] [24ee
[24CK 24ee]
12CJ] 12dd
=43
[12EL [12G 12cc 12dd
24Ek] 24G] [24bn
[24CK 24b]
12CJ] 12cc
[12EL [12G 12cc
24Ek] 24G] [24dd
[24CK 24dd]
12CJ] 12b-X
=44
8FL 8A [8a
8CJ 8a]
8FL 8A
8CJ
=45
[12GL [12B- 12cc
24Gk] 24B-] [24ee
[24CK 24ee]
12CJ] 12dd
[12GL [12B- 12cc
24Gk] 24B-] [24dd
[24CK 24dd]
12CJ] 12ee
=46
[12FL [12A 12ff
24Fk] 24A] [24aa
24aaK]
12ggJ
[12DL [12A 12ff 12gg
24Dk] 24A] [24ee
24eeK]
12ffJ
=47
[12BB-L [12G 12dd
24BB-k] 24G] [24gg
24ggK]
12ffJ
[12CL [12B- 12ee
24Ck] 24B-] [24dd
24ddK]
12ccJ
=48
4F 4A 4ff
4C 4G 4B- 4e
=49
4FF 4A 4f
4cc 4ccc
=50
16bb-LL
16aaJ
[16ccL 16gg
16ccJJ] 16ff
[16aLL 16ee
16aJ] 16ff
[16fL 16gg
16fJJ] 16aa
=51
8cccL
[16eL 16gg 16bb-
16eJJ]
8bb-L
[16fL 16ff 16aa
16fJJ]
=52
16aaLL
16eeJ 16gg
[16cL 16gg
16cJJ] 16dd 16ff
[16cLL 16ff
16cJ] 16cc 16ee
[16cL 16gg
16cJJ] 16dd 16ff
=53
8cL 8aa
16eeJk 16gg
16r
4cc 4ccc
=54
16bb-LL
16aaJ
[16ccL 16gg
16ccJJ] 16ff
[16aLL 16ee
16aJ] 16ff
[16fL 16gg
16fJJ] 16aa
=55
8cccL
[16eL 16gg 16bb-
16eJJ]
8bb-L
[16fL 16ff 16aa
16fJJ]
=56
8aaL
[16B-L 16dd 16gg
16B-JJ]
8ffL
[16cL 16b- 16ee
16cJJ]
=57
8ggL
[16FL 16a 16ff
16FJJ]
4c 4cc
=58
16b-LL
16aJ
[16cL 16g
16cJJ] 16f
[16ALL 16e
16AJ] 16f
[16FL 16g
16FJJ] 16a
=59
16ccLL
16gJ
[16EL 16b-
16E'JJ] 16b-
16b-LL
16fJ
[16FL 16a
16F'JJ] 16a
=60
16aLL
16eJ 16g
[16CL 16g
16CJJ] 16d 16f
[16CLL 16f
16CJ] 16c 16e
[16CL 16g
16CJJ] 16d 16f
=61
8CL 8a
16eJk 16g
16r
4c 4cc
=62
16b-LL
16aJ
[16cL 16g
16cJJ] 16f
[16ALL 16e
16AJ] 16f
[16FL 16g
16FJJ] 16a
=63
16ccLL
16gJ
[16EL 16b-
16E'JJ] 16b-
16b-LL
16fJ
[16FL 16a
16F'JJ] 16a
=64
16aLL
16eJ
[16GL 16g
16G'JJ] 16g
16aLL
16fJ
[16GGL 16bn
16GGJJ] 16d
=65
[16CLL 16cc
16C'J] 16e
[16CCL 16cc#X
16CC'JJ] 16e
16ddLL
16fJ
16eeL
16gJJ
=66
[16cLL [16e
16cJ] 16e] 16cc
[16GL 16gg
16G'JJ] 16gg
[16dLL [16f
16dJ] 16f] 16bn
[16GL 16gg
16G'JJ] 16gg
=67
[16cLL 16cc
16c'J] 16e
[16CL 16cc#X
16C'JJ] 16e
16ddLL
16fJ
16eeL
16gJJ
=68
[16cLL [16e
16cJ] 16e] 16cc
[16GL 16gg
16G'JJ] 16gg
[16dLL [16f
16dJ] 16f] 16bn
[16GL 16gg
16G'JJ] 16gg
=69
4c; 4e 4cc
16bnLL
16ccJ
16ddL
16ccJJ
=70
16b-LL
16aJ
16ffL
16ccJJ
16aaLL
16ffJ
16ccL
16aJJ
=71
[16ELL 16cc
16EJ_ 16b-
16EL_ [16c 16gg
16E'JJ] 16c_ 16gg
[16FLL 16c_ 16b-
16FJ_ 16c] 16a
16FL_ [16c 16ff
16F'JJ] 16c] 16ff
=72
[16B-'LL [16c 16g
16B-'J] 16c] 16ee
[16AL [16c 16a
16A'JJ] 16c] 16ff
[16ELL [16c 16b-
16E'J] 16c] 16gg
[16FL [16c 16a
16F'JJ] 16c] 16ff
=73
[16CLL [16c 16g
16CJ] 16c] 16ee
16ccL
16ccJJ
16bnLL
16ccJ
16ddL
16ccJJ
=74
16b-LL
16aJ
[16cL 16ff
16cJJ] 16cc
[16ALL 16aa
16AJ] 16ff
[16FL 16cc
16FJJ] 16a
=75
[16ELL 16cc
16EJ_ 16b-
16EL_ [16c 16gg
16E'JJ] 16c_ 16gg
[16FLL 16c_ 16b-
16FJ_ 16c] 16a
16FL_ [16c 16ff
16F'JJ] 16c_ 16ff
=76
[16GLL 16c_ 16a-X
16GJ_ 16c] 16g
16GL_ [16Bn 16ff
16G'JJ_ 16B] 16ff
16GLL_ [16d 16bn
16GJ] 16d_ 16g
[16BnL 16d_ 16bn
16BJJ] 16d] 16f
=77
[16cLL [16e 16cc
16cJ] 16e] 16cc#X
16ddL
16ee-XJJ
16eenLL
16ffJ
16ff#XL
16ggJJ
=78
[16GLL 16aa
16GJ] 16gg
[16cL [16e 16ff
16cJJ] 16e] 16ee
[16GLL 16ee
16GJ] 16dd
[16dL [16f 16cc
16dJJ] 16f] 16bn
=79
[16cLL [16e 16cc
16cJ] 16e] 16cc#X
16ddL
16ee-XJJ
16eenLL
16ffJ
16ff#XL
16ggJJ
=80
[16GGLL 16aa
16GGJ] 16gg
[16CL [16E 16ff
16CJJ] 16E] 16ee
[16GGLL 16ee
16GGJ] 16dd
[16DL [16F 16cc
16DJJ] 16F] 16bn
=81
[16CLL [16E 16bn
16CJ] 16E] 16cc
16bnL
16ccJJ
16bnLL
16ccJ
16ddL
16ccJJ
=82
16ee-XLL
16aJ
[16f#XL 16dd
16f#'JJ] 16dd
16cc#XLL
16ddJ
[16dL 16f#X
16d'JJ] 16f#
=83
16ccLL
16dJ
[16GL 16b-
16G'JJ] 16b-
16ccLL
16dJ
[16FL 16bn
16F'JJ] 16b
=84
16ddLL
16gJ
[16EL 16cc
16E'JJ] 16cc
16bnLL
16ccJ
[16CL 16e
16C'JJ] 16e
=85
16b-LL
16cJ
[16FFL 16a
16FF'JJ] 16a
16bnLL
16ccJ
16ddL
16ccJJ
=86
16b-LL
16aJ
[16cL 16ff
16cJJ] 16cc
[16ALL 16aa
16AJ] 16ff
[16FL 16cc
16FJJ] 16a
=87
[16ELL 16cc
16EJ] 16b-
[16CL 16gg
16C'JJ] 16gg
[16FLL 16b-
16FJ] 16a
[16AL 16ff
16A'JJ] 16ff
=88
[16B-LL 16a-X
16B-J] 16g
[16BnL 16ff
16B'JJ] 16ff
[16cLL 16an
16c'J] 16ff
[16CL 16b-X
16C'JJ] 16ee
=89
[16F'LL 16ff
16F'J] 16cc
[16FFL 16bn
16FF'JJ] 16cc
16b-XLL
16aJ
16gL
16fJJ
=90
[16CLL [16G [16B-
16CJ] 16G] 16B-] 16bn
16ddL
16ccJJ
[16CLL [16G [16B-X
16CJ] 16G] 16B-] 16dd#X
16eeL
16ccJJ
=91
[16CLL [16F [16A
16CJ] 16F] 16A] 16ee
16ffL
16ccJJ
[16CLL [16F [16A
16CJ] 16F] 16A] 16gg#X
16aaL
16ccJJ
=92
[16CLL [16E [16G
16CJ] 16E] 16G] 16bbn
16cccL
16ccJJ
[16CLL [16E [16G
16CJ] 16E] 16G] 16aa
16bb-XL
16ccJJ
=93
[16FLL [16A
16FJ] 16A] 16gg#X
16bb-L
16aaJJ
16ggnLL
16ffJ
16eeL
16ddJJ
=94
[16cLL [16g [16b-
16cJ] 16g] 16b-] 16bn
16ddL
16ccJJ
[16cLL [16g [16b-X
16cJ] 16g] 16b-] 16dd#X
16ffL
16eeJJ
=95
[16fLL [16a
16fJ] 16a] 16ee
16ggL
16ffJJ
[16dLL [16f [16a
16dJ] 16f] 16a] 16gg#X
16aaL
16ffJJ
=96
[16B-LL [16d [16g
16B-J] 16d] 16g] 16ccc#X
16dddL
16ggJJ
[16cnLL [16g [16b-
16cJ] 16g] 16b-] 16aa
16bb-L
16eeJJ
=97
[16fLL [16a
16fJ] 16a] 16ee
16ffL
16ccJJ
[16CLL [16E
16CJ] 16E] 16a
16b-L
16gJJ
=98
8FF 8F 8f
8r
4A 4cc
=99
16FLL 16a
32GL 32b-
32AJJ 32cc
32B-LL 32dd
32c 32ee
32d 32ff
32eJJJ 32gg
8f'L 8aa
8a'J 8ccc
=100
8gL [8bb-
8eJ [8gg 8bb-]
8fL 8gg] [8aa
16AL [16ff 16aa_
16BnJJ 16ff_ 16aa]
=101
[16cLL 16ff] [16gg
16c'J] [16ee 16gg]
[16CL 16ee] [16ff
16C'JJ] [16dd 16ff]
[16CLL 16dd] [16ee
16C'J] [16cc 16ee]
[16CL 16cc] [16ff
16C'JJ] [16dd 16ff]
=102
[16CLL 16dd] [16gg
16C'J] [16ee 16gg]
[16CL 16ee] [16aa
16C'JJ] [16ff 16aa]
[16CLL 16ff] [16gg
16C'J] 16ee 16gg]
8A'J 8cc
=103
16FLL 16a
32GL 32b-
32AJJ 32cc
32B-LL 32dd
32c 32ee
32d 32ff
32eJJJ 32gg
8f'L 8aa
8a'J 8ccc
=104
8gL [8bb-
8eJ [8gg 8bb-]
8fL 8gg] [8aa
8dJ 8ff 8aa_
=105
8B-L [8dd 8aa]
8BnJ 8dd] 8gg
8cL 8a 8ff
8CJ [8b-X [8ee
=106
8FL 8b-_ 8ee]
8CJ 8b-] 8gg
8FFL 8a 8ff
8AA'J 8c
=107
16FFLL 16A
32GGL 32B-
32AAJJ 32c
32BB-LL 32d
32C 32e
32D 32f
32EJJJ 32g
8F'L 8a
8A'J 8cc
=108
8GL [8b-
8EJ 8b-] [8gg
8FL [8a 8gg]
8BBnJ 8a] [8ff
=109
[16CLL [16g 16ff]
16C'J] 16g] [16ee
[16CCL [16f 16ee]
16CC'JJ] 16f] [16dd
[16CCLL [16e 16dd]
16CC'J] 16e] [16cc
[16CCL [16f 16cc]
16CC'JJ] 16f] [16dd
=110
[8CCL [8f#X 8dd]
8CCJ_ 8f#] 8dd#X
8CCL] 8g 8ee
8AA'J 8c
=111
16FFLL 16A
32GGL 32B-
32AAJJ 32c
32BB-LL 32d
32C 32e
32D 32f
32EJJJ 32g
8F'L 8a
8A'J 8cc
=112
8GL [8b-
8EJ 8b-] [8gg
8FL [8a 8gg]
8BBnJ 8a] [8ff
=113
[16CLL [16g 16ff]
16CJ] 16g] [16ee
[16CCL [16g 16ee]
16CCJJ] 16g] [16ee
[16GGLL [16a 16ee]
16GGJ] 16a] [16ff
[16GGGL [16bn 16ff]
16GGGJJ] 16b] 16dd
=114
16CCLL [16cc
32DDL 32cc_
32EEJJ 32cc_
32FFLL 32cc_
32GG 32cc_
32AA 32cc_
32BBnJJJ 32cc]
8C'L
8E'J
=115
[16GGLL [16G 16gg
32GGL_ 32G_ 32ff
32GGJJ_ 32G_ 32ee
32GGLL_ 32G_ 32dd
32GG_ 32G_ 32cc
32GG_ 32G_ 32bn
32GGJJJ_ 32G_ 32a
8GG'L] 8G] 8g
8GG'J 8G 8f 8bn
=116
16CLL [16e [16cc
32DL 32e_ 32cc_
32EJJ 32e] 32cc]
32FLL
32G
32A
32BnJJJ
8c'L
8e'J
=117
[16GLL [16g 16gg
32GL_ 32g_ 32ff
32GJJ_ 32g_ 32ee
32GLL_ 32g_ 32dd
32G_ 32g_ 32cc
32G_ 32g_ 32bn
32GJJJ_ 32g_ 32a
8GL] 8g]
8G'J 8f 8bn
=118
4.c; 4.e 4.cc
8cc'
=119
32aLLL
32f
32g
32aJJ
32b-LL
32cc
32dd
32eeJJJ
8ff'L
8cc'J
=120
32ELLL [32b-
32F 32b-_
32G 32b-_
32AJJ 32b-_
32B-LL 32b-_
32c 32b-_
32d 32b-_
32eJJJ 32b-]
8f'L [8a
8c'J 8a]
=121
8B-L [8c 8g
8AJ 8c_ 8f
8GL 8c_ 8e 8b-
8FJ 8c_ [8f [8a
=122
[8CL 8c_ 8f] 8a]
8CJ_ 8c_ 8d#X 8f#X
8CL] 8c] 8e 8g
8c'J
=123
32ALLL
32F
32G
32AJJ
32B-LL
32c
32d
32eJJJ
8f'L
8c'J
=124
[32B-LLL 32e
32B-_ 32f
32B-_ 32g
32B-JJ] 32a
[32ALL 32b-
32A_ 32cc
32A_ 32dd
32AJJJ_ 32ee
8AL] [8ff
8A-XJ 8ff_
=125
[8GL 8ff]
16GL_ [16Bn 16ee
16GJJ_ 16B] 16dd
16GLL_ [16d 16dd
16GJ_ 16d] 16cc
16GL_ [16f 16cc
16GJJ] 16f] 16bn
=126
8eL 8cc
[16cL 16bn 16cc 16dd
16cJJ] 16dd
8eeL
16ddL 16ee 16ff
16ffJJ
=127
[16GLL 16ff#X
16GJ] 16gg
[16c'L [16e 16ee
16c'JJ] 16e] 16cc
[16GLL 16ee
16GJ] 16ffn
[16d'L [16f 16dd
16d'JJ] 16f] 16bn
=128
[24eLL 24cc
24e_ 24dd
24eJ] 24cc
[24cL 24bn
24c_ 24cc
24cJJ] 24dd
24eeLL
24ff
24eeJ
24ddL
24ee
24ffJJ
=129
[24GGLL 24ff#X
24GG_ 24gg
24GGJ] 24aa
[24CL [24E 24gg
24C_ 24E_ 24ee
24CJJ] 24E] 24cc
[24GGLL 24ee
24GG_ 24ffn
24GGJ] 24gg
[24DL [24F 24ff
24D_ 24F_ 24dd
24DJJ] 24F] 24bn
=130
4C 4E 4cc
4cc#X
=131
8dd'L
8dd'J
[8ddL
[16f#XL 16dd]
32f#L_ 32cc#X
32f#JJJ] 32dd
=132
8g'L [8b-
8g'J 8b-_
[8gL 8b-]
16gL] [16bn
32f#XL 32b_
32gJJJ 32b]
=133
[8e'L 8cc
8e'J_ 8cc
8eL] [8cc
[16eL 16cc]
32eL_ 32bn
32eJJJ] 32cc
=134
8f'L [8a
8f'J 8a_
16fLL 16a]
16FFJ 16A
16AAL 16c
16CJJ 16f
=135
16F'LL 16a
32GL 32b-
32AJJ 32cc
32B-LL 32dd
32c 32ee
32d 32ff
32eJJJ 32gg
8f'L 8aa
8a'J 8ccc
=136
8gL [8bb-
8eJ [8gg 8bb-]
8fL 8gg] [8aa
8dJ [8ff 8aa]
=137
8B-L 8ff] [8ddd
8BnJ 8ff 8ddd]
8c'L 8aa 8ccc
8C'J 8b-X 8ee
=138
8FL 8a 8ff
8FFJ
8bnL 8cc
8bnJ 8cc
=139
[32CLLL [32G [32B-
32C_ 32G_ 32B-_ 32c
32C_ 32G_ 32B-_ 32d
32CJJ_ 32G_ 32B-_ 32e
32CLL_ 32G_ 32B-_ 32f
32C_ 32G_ 32B-_ 32g
32C_ 32G_ 32B-_ 32a
32C'JJJ] 32G] 32B-] 32bn
8cc'L
8C'J 8G 8B-X 8ee
=140
[32CLLL [32F [32A
32C_ 32F_ 32A_ 32f
32C_ 32F_ 32A_ 32g
32CJJ_ 32F_ 32A_ 32a
32CLL_ 32F_ 32A_ 32b-
32C_ 32F_ 32A_ 32cc
32C_ 32F_ 32A_ 32dd
32C'JJJ] 32F] 32A] 32ee
8ff'L
8C'J 8F 8A 8aa
=141
[32CLLL [32E [32G
32C_ 32E_ 32G_ 32cc
32C_ 32E_ 32G_ 32dd
32CJJ_ 32E_ 32G_ 32ee
32CLL_ 32E_ 32G_ 32ff
32C_ 32E_ 32G_ 32gg
32C_ 32E_ 32G_ 32aa
32C'JJJ] 32E] 32G] 32bbn
8ccc'L
8C'J 8E 8G 8bb-X
=142
[16F'LL [16A 16aa
16F'J_ 16A_ 16ccc
16F'L_ 16A_ 16aa
16F'JJ] 16A] 16ff
16cc'LL
16a'J
16f'L
16cc'JJ
=143
[32cLLL
32CC 32c_
32DD 32c_
32EEJJ 32c_
32FFLL 32c_
32GG 32c_
32AA 32c_
32BBnJJJ 32c]
8C'L
8E'J 8g 8b-X 8cc
=144
[32fLLL [32a [32cc
32FF 32f_ 32a_ 32cc_
32GG 32f_ 32a_ 32cc_
32AAJJ 32f_ 32a_ 32cc_
32BB-LL 32f_ 32a_ 32cc_
32C 32f_ 32a_ 32cc_
32D 32f_ 32a_ 32cc_
32E'JJJ 32f] 32a] 32cc]
8F'L
8A'J 8f 8cc 8ff
=145
[32BB-LLL 32dd
32BB-_ 32ee
32BB-_ 32ff
32BB-JJ] 32gg
32aaLL
32bb-
32ccc
32dddJJJ
[32CLLL [32G [32B- 32ee
32C_ 32G_ 32B-_ 32ff
32C_ 32G_ 32B-_ 32gg
32CJJ] 32G] 32B-] 32aa
32bb-LL
32ccc
32ddd
32eeeJJJ
=146
[16FLL [16A
32FL_ 32A_ 32fff
32FJJ] 32A] 32eee
32dddLL
32ccc
32bb-
32aaJJJ
[32CLLL [32E 32gg
32C_ 32E_ 32ff
32C_ 32E_ 32ee
32CJJ] 32E] 32dd
32ccLL
32b-
32a
32gJJJ
=147
8FF 8F 8f
8r
[16ccLL
16cc'J]
16dd'L
16ee'JJ
=148
[16aLL
16a'J] 16ff
16gg'L
16aa'JJ
[16fLL
16f'J] 16aa
16bb-'L
16ccc'JJ
=149
[16eLL
16e'J] 16ccc
16gg'L
16bb-'JJ
[16fLL
16f'J] 16bb-
16ff'L
16aa'JJ
=150
[16cLL
16c'J] 16aa
[16c'L 16ee
16c'JJ] 16gg
[16c'LL 16dd
16c'J] 16ff
[16c'L 16cc
16c'JJ] 16ee
=151
[16c'LL 16dd
16c'J] 16ff
16ee'L
16gg'JJ
[16ccLL
16ccJ]
16dd'L
16ee'JJ
=152
[16aLL
16a'J] 16ff
16gg'L
16aa'JJ
[16fLL
16f'J] 16aa
16bb-'L
16ccc'JJ
=153
[16eLL
16e'J] 16ccc
16gg'L
16bb-'JJ
[16fLL
16f'J] 16bb-
16ff'L
16aa'JJ
=154
[16B-LL
16B-'J] 16aa
[16Bn'L 16dd
16B'JJ] 16gg
[16cLL
16c'J] 16ff
[16C'L 16b-X
16C'JJ] 16ee
=155
[16FLL
16F'J] 16gg
[16FF'L 16a
16FF'JJ] 16ff
[16ccLL [16ccc
16C'J 16cc] 16ccc]
16D'L
16E'JJ
=156
[16aLL [16aa
16F'J 16a] 16aa]
16G'L
16A'JJ
[16fLL [16ff
16A'J 16f] 16ff]
16B-'L
16c'JJ
=157
[16eLL [16ee
16c'J 16e] 16ee]
16G'L
16B-'JJ
[16fLL [16ff
16B-'J 16f] 16ff]
16F'L
16A'JJ
=158
[16ccLL [16ccc
16A'J 16cc] 16ccc]
16E'L [16cc [16ccc
16G'JJ 16cc] 16ccc]
16D'LL [16cc [16ccc
16F'J 16cc] 16ccc]
16C'L [16cc [16ccc
16E'JJ 16cc] 16ccc]
=159
16D'LL [16cc [16ccc
16F'J 16cc] 16ccc]
16E'L [16cc [16ccc
16G'JJ 16cc] 16ccc]
[16ccLL [16ccc
16C'J 16cc] 16ccc]
16D'L
16E'JJ
=160
[16aLL [16aa
16F'J 16a] 16aa]
16G'L
16A'JJ
[16fLL [16ff
16A'J 16f] 16ff]
16B-'L
16c'JJ
=161
[16eLL [16ee
16c'J 16e] 16ee]
16G'L
16B-'JJ
[16fLL [16ff
16B-'J 16f] 16ff]
16F'L
16A'JJ
=162
[16gLL [16gg
16A'J 16g] 16gg]
16E'L [16g [16gg
16G'JJ 16g] 16gg]
[16aLL [16aa
16G'J 16a] 16aa]
16D'L [16bn [16bbn
16F'JJ 16b] 16bb]
=163
16CLL [16cc [16ccc
16EJ 16cc_ 16ccc_
16DL 16cc_ 16ccc_
16CJJ 16cc] 16ccc]
16BBnLL [16dd [16ddd
16AA'J 16dd] 16ddd]
16GGL [16ee [16eee
16FF#X'JJ 16ee] 16eee]
=164
[16GGLL
16GGJ] 16aa
[16CL [16E 16cc
16CJJ] 16E] 16gg
[16GGLL
16GGJ] 16aa
[16DL [16F 16bn
16DJJ] 16F] 16gg
=165
16CLL [16cc
16E'J 16cc]
16DL [16cc [16ccc
16C'JJ 16cc] 16ccc]
16BBnLL [16dd [16ddd
16AA'J 16dd] 16ddd]
16GGL [16ee [16eee
16FF#X'JJ 16ee] 16eee]
=166
[16GGLL
16GGJ] 16aa
[16CL [16E 16cc
16CJJ] 16E] 16gg
[16GGLL
16GGJ] 16aa
[16DL [16F 16bn
16DJJ] 16F] 16gg
=167
4C; 4E 4cc
[16cLL
16c'J] 16f 16a
16g'L 16b-
16a'JJ 16cc
=168
[16ALL
16A'J] 16a 16ff
16b-'L 16gg
16cc'JJ 16aa
[16FLL
16F'J] 16ff 16aa
16gg'L 16bb-
16aa'JJ 16ccc
=169
[16ELL
16E'J] 16aa 16ccc
16ff#X'L 16aa
16gg'JJ 16bb-
[16FnLL
16F'J] 16gg 16bb-
16ee'L 16gg#X
16ffn'JJ 16aa
=170
[16CLL [16B-
16C'J] 16B-] 16ee 16gg
[16CL [16A
16C'JJ] 16A] 16ff
[16CLL [16G
16C'J] 16G] 16ee 16bb-
[16CL [16F
16C'JJ] 16F] 16ff 16aa
=171
[16CLL [16c
16C'J] 16c] 16ff 16aa
16dd#X'L 16ff#X
16ee'JJ 16gg
[16cLL
16c'J] 16fn 16a
[16C'L 16g 16b-
16C'JJ] 16a 16cc
=172
[16ALL
16A'J] 16a 16ff
[16AA'L 16b- 16gg
16AA'JJ] 16cc 16aa
[16FLL
16F'J] 16ff 16aa
[16FF'L 16gg 16bb-
16FF'JJ] 16aa 16ccc
=173
[16ELL
16E'J] 16aa 16ccc
[16EE'L 16ff#X 16aa
16EE'JJ] 16gg 16bb-
[16FnLL
16F'J] 16gg 16bb-
[16FF'L 16ee 16gg#X
16FF'JJ] 16ffn 16aa
=174
[16DLL
16D'J] 16ff 16aa
[16DD'L 16ee 16gg
16DD'JJ] 16dd 16ff
[16GLL
16G'J] 16dd 16ff
[16GG'L 16cc 16ee
16GG'JJ] 16bn 16dd
=175
[16eLL [16cc
16C'J 16e] 16cc]
16DL [16ee [16gg
16E'JJ 16ee] 16gg]
[16eeLL [16gg
16E'J 16ee] 16gg]
16FL [16ee [16gg
16F#X'JJ 16ee] 16gg]
=176
[16GGLL
16GG'J] 16ee 16gg
[16G'L 16dd 16ff
16G'JJ] 16cc 16ee
[16GGLL
16GG'J] 16f 16dd
[16G'L 16e 16cc
16G'JJ] 16d 16bn
=177
[16eLL [16cc
16C'J 16e] 16cc]
16DL [16ee [16gg
16E'JJ 16ee] 16gg]
[16eeLL [16gg
16E'J 16ee] 16gg]
16FL [16ee [16gg
16F#X'JJ 16ee] 16gg]
=178
[16GGLL
16GG'J] 16ee 16gg
[16G'L 16dd 16ff
16G'JJ] 16cc 16ee
[16GGLL
16GG'J] 16f 16dd
[16G'L 16e 16cc
16G'JJ] 16d 16bn
=179
4C 4e [4cc
16ccLL]
16bnJ
16ccL
16cc#XJJ
=180
[16ddLL
16f#XJ 16dd]
16gL [16cc
16aJJ 16cc]
[16b-LL
16dJ 16b-]
16eL [16a
16f#XJJ 16a]
=181
[16gLL
16gJ] 16b-
[16fL 16cc
16fJJ] 16dd
[16eLL
16eJ] 16g
[16dL 16a
16dJJ] 16b-
=182
[16ccLL
16eJ 16cc]
16fL [16b-
16gJJ 16b-]
[16aLL
16cJ 16a]
16dL [16g
16eJJ 16g]
=183
[16fLL
16fJ_ 16a
16fL_ 16b-
16fJJ] 16bn
[16cLL 16cc
16cJ] 16cc#X
[16B-XL 16dd
16B-JJ] 16ee
=184
[16ALL
16A'J] 16f 16ff
[16c'L 16g 16gg
16c'JJ] 16a 16aa
[16ALL
16A'J] 16a 16aa
[16F'L 16b- 16bb-
16F'JJ] 16cc 16ccc
=185
[16ELL
16E'J] 16cc 16ccc
[16C'L 16a 16aa
16C'JJ] 16b- 16bb-
[16FLL
16F'J] 16b- 16bb-
[16D'L 16g#X 16gg#X
16D'JJ] 16a 16aa
=186
[16BB-LL
16BB-'J] 16dd 16ddd
[16BBn'L 16ee 16eee
16BB'JJ] 16ff 16fff
[16CLL
16C'J] 16ee 16eee
[16CCL
16CC'JJ] 16e 16ee
=187
[16fLL [16ff
16FF'J 16f_ 16ff_
16FF#X'L 16f_ 16ff_
16GG'JJ 16f] 16ff]
16AA-X'LL
16AAn'J
16BB-'L
16BBn'JJ
=188
[16gLL [16b- [16cc
16C'J 16g] 16b-] 16cc]
16E'L
16D'JJ
[16gLL [16b- [16cc
16C'J 16g] 16b-] 16cc]
16D'L
16E'JJ
=189
[16fLL [16a [16cc
16F'J 16f] 16a] 16cc]
16A'L
16G'JJ
[16fLL [16a [16cc
16F'J 16f] 16a] 16cc]
16E'L
16D'JJ
=190
[16gLL [16cc [16ee
16C'J 16g] 16cc] 16ee]
16BBn'L
16C'JJ
[16gLL [16cc [16ee
16C'J 16g] 16cc] 16ee]
16D'L
16BB-X'JJ
=191
[16aLL [16cc [16ff
16AA'J 16a] 16cc] 16ff]
16C'L
16BB-'JJ
[16aLL [16cc [16ff
16AA'J 16a] 16cc] 16ff]
16GG'L
16FF'JJ
=192
[16b-LL [16cc [16gg
16C'J 16b-] 16cc] 16gg]
16E'L
16D'JJ
[16gLL [16b- [16cc
16C'J 16g] 16b-] 16cc]
16D'L
16E'JJ
=193
[16fLL [16a [16cc
16F'J 16f] 16a] 16cc]
16G'L
16A'JJ
[16fLL [16a [16ff
16D'J 16f] 16a] 16ff]
16E'L
16F'JJ
=194
[16gLL [16dd [16ff
16BB-'J 16g] 16dd] 16ff]
16AA'L
16GG'JJ
[16gLL [16b- [16ee
16C'J 16g] 16b-] 16ee]
16BBn'L
16C'JJ
=195
[16aLL [16ff
16FF'J 16a] 16ff]
16EE'L
16FF'JJ
[16bb-LL [16eee
16CC'J 16bb-] 16eee]
16BBBn'L
16CC'JJ
=196
8aa'L 8fff
8FFFJ
[4ccc
=197
[24fLL [24a 24ccc]
24f_ 24a_ 24aa
24fJ] 24a] 24bb-
[24cL 24ccc
24c_ 24ddd
24cJJ] 24eee
[24fLL [24a 24fff
24f_ 24a_ 24eee
24fJ] 24a] 24ddd
[24cL 24ccc
24c_ 24bb-
24cJJ] 24aa
=198
[24eLL [24g 24bb-
24e_ 24g_ 24aa
24eJ] 24g] 24bb-
8c'J 8ccc
[24fLL [24a 24aa
24f_ 24a_ 24gg#X
24fJ] 24a] 24aa
8c'J 8ccc
=199
[24gLL [24b- 24gg
24g_ 24b-_ 24aa
24gJ] 24b-] 24gg
[24aL [24cc 24ff
24a_ 24cc_ 24gg
24aJJ] 24cc] 24ff
[24b-LL [24dd-X 24ee
24b-_ 24dd-_ 24ff
24b-J] 24dd-] 24ee
[24aL [24cc 24ff
24a_ 24cc_ 24gg
24aJJ] 24cc] 24ff
=200
8gL 8b- [8gg
8fJ 8a 8gg]
8eL 8g [8ccc
8cJ 8e 8ccc_
=201
[24fLL [24a 24ccc]
24f_ 24a_ 24aa
24fJ] 24a] 24bb-
[24cL 24ccc
24c_ 24ddd
24cJJ] 24eee
[24fLL [24a 24fff
24f_ 24a_ 24eee
24fJ] 24a] 24ddd
[24cL 24ccc
24c_ 24bb-
24cJJ] 24aa
=202
[24eLL [24g 24bb-
24e_ 24g_ 24aa
24eJ] 24g] 24bb-
8c'J 8ccc
[24fLL [24a 24aa
24f_ 24a_ 24gg#X
24fJ] 24a] 24aa
8c'J 8ccc
=203
8gL 8b- 8gg
[16aL [16cc 16bb-
16aJJ_ 16cc_
8a'L] 8cc] 8dd
8g'J 8b- 8ee
=204
8f'L 8a [8ff
8c'J 8ff]
8F'L [8cc
8ccJ_
=205
[24FLL [24A 24cc]
24F_ 24A_ 24a
24FJ] 24A] 24b-
[24CL 24cc
24C_ 24dd
24CJJ] 24ee
[24FLL [24A 24ff
24F_ 24A_ 24ee
24FJ] 24A] 24dd
[24CL 24cc
24C_ 24b-
24CJJ] 24a
=206
[24ELL [24G 24b-
24E_ 24G_ 24a
24EJ] 24G] 24b-
[24CL 24cc
24C_ 24bn
24CJJ] 24cc
[24FLL [24A 24a
24F_ 24A_ 24g#X
24FJ] 24A] 24a
[24CL 24cc
24C_ 24bn
24CJJ] 24cc
=207
[24GLL [24B- 24g
24G_ 24B-_ 24bn
24GJ] 24B-] 24cc
[24AL [24c 24f
24A_ 24c_ 24bn
24AJJ] 24c] 24cc
[24B-XLL [24d-X 24e
24B-_ 24d-_ 24bn
24B-J] 24d-] 24cc
[24AL [24c 24f
24A_ 24c_ 24bn
24AJJ] 24c] 24cc
=208
8GL 8B- [8g
8FJ 8A 8g]
8EL 8G [8cc
8CJ 8E 8cc_
=209
[24FLL [24A 24cc]
24F_ 24A_ 24a
24FJ] 24A] 24b-
[24CL 24cc
24C_ 24dd
24CJJ] 24ee
[24FLL [24A 24ff
24F_ 24A_ 24ee
24FJ] 24A] 24dd
[24CL 24cc
24C_ 24b-
24CJJ] 24a
=210
[24ELL [24G 24b-
24E_ 24G_ 24a
24EJ] 24G] 24b-
[24CL 24gg
24C_ 24ff#X
24CJJ] 24gg
[24FnLL [24A 24a
24F_ 24A_ 24g#X
24FJ] 24A] 24a
[24CL 24ffn
24C_ 24ee
24CJJ] 24ff
=211
[24GLL [24c 24g
24G_ 24c_ 24f#X
24GJ] 24c] 24g
[24CL 24ee
24C_ 24dd#X
24CJJ] 24ee
[24A-XLL [24Bn 24fn
24A-_ 24B_ 24e
24A-J] 24B] 24f
[24CL 24ddn
24C_ 24cc#X
24CJJ] 24dd
=212
[24GLL [24c 24e
24G_ 24c_ 24d#X
24GJ] 24c] 24e
[24CL 24cc
24C_ 24bn
24CJJ] 24cc
[24GLL [24c 24f
24G_ 24c_ 24cc#X
24GJ] 24c] 24ddn
[24CnL 24g
24C_ 24dd#X
24CJJ] 24ee
=213
[24ELL [24G [24c 24cc
24E_ 24G_ 24c_ 24bn
24EJ] 24G] 24c] 24cc
[24CL 24gg
24C_ 24ff#X
24CJJ] 24gg
[24DLL [24Fn [24Bn 24bn
24D_ 24F_ 24B_ 24a#X
24DJ] 24F] 24B] 24bn
[24CL 24gg
24C_ 24ff#X
24CJJ] 24gg
=214
[24ELL [24G [24c 24e
24E_ 24G_ 24c_ 24d#X
24EJ] 24G] 24c] 24e
[24CL 24cc
24C_ 24bn
24CJJ] 24cc
[24GLL [24c 24f
24G_ 24c_ 24cc#X
24GJ] 24c] 24ddn
[24CnL 24g
24C_ 24dd#X
24CJJ] 24ee
=215
[24ELL [24G [24c 24cc
24E_ 24G_ 24c_ 24bn
24EJ] 24G] 24c] 24cc
[24CL 24gg
24C_ 24ff#X
24CJJ] 24gg
[24DLL [24Fn [24Bn 24bn
24D_ 24F_ 24B_ 24a#X
24DJ] 24F] 24B] 24bn
[24CL 24gg
24C_ 24ff#X
24CJJ] 24gg
=216
4C; 4E 4G 4c 4cc
4bn [4cc 4dd
=217
[24cLL [24f 24cc]
24c_ 24f_ 24a
24cJ] 24f] 24cc
[24FL 24ff
24F_ 24cc
24FJJ] 24ff
[24cLL [24f 24aa
24c_ 24f_ 24ff
24cJ] 24f] 24cc
[24FL 24ff
24F_ 24cc
24FJJ] 24a
=218
[24d-XLL [24e 24b-
24d-_ 24e_ 24a
24d-J] 24e] 24b-
[24FL 24bb-
24F_ 24aa
24FJJ] 24bb-
[24cLL [24f 24a
24c_ 24f_ 24g#X
24cJ] 24f] 24a
[24FL 24aa
24F_ 24gg#X
24FJJ] 24aa
=219
[24FLL [24B- [24d-X 24g
24F_ 24B-_ 24d-_ 24ff#X
24FJ_ 24B-] 24d-] 24gg
24FL_ [24A [24c 24fn
24F_ 24A_ 24c_ 24ee
24FJJ_ 24A] 24c] 24ffn
24FLL_ [24G [24B- 24e
24F_ 24G_ 24B-_ 24dd#X
24FJ] 24G] 24B-] 24ee
[24FL [24A 24f
24F_ 24A_ 24ee
24FJJ] 24A] 24ff
=220
[24ELL [24G 24g
24E_ 24G_ 24gg
24EJ] 24G] 24ff
[24CL [24E 24ee
24C_ 24E_ 24dd
24CJJ] 24E] 24cc
24bnLL
24dd
24ccJ
24bnL
24dd
24ccJJ
=221
[24ALL [24c [24f 24cc
24A_ 24c_ 24f_ 24a
24AJ] 24c] 24f] 24cc
[24FL 24ff
24F_ 24cc
24FJJ] 24ff
[24ALL [24c [24f 24aa
24A_ 24c_ 24f_ 24ff
24AJ] 24c] 24f] 24cc
[24FL 24ff
24F_ 24cc
24FJJ] 24a
=222
[24GLL [24B- [24c#X [24e 24b-
24G_ 24B-_ 24c#_ 24e_ 24a
24GJ] 24B-] 24c#] 24e] 24b-
[24FL 24bb-
24F_ 24aa
24FJJ] 24bb-
[24ALL [24d [24f 24a
24A_ 24d_ 24f_ 24g#X
24AJ] 24d] 24f] 24a
[24FL 24aa
24F_ 24gg#X
24FJJ] 24aa
=223
[24ALL [24d [24f 24a
24A_ 24d_ 24f_ 24g#X
24AJ] 24d] 24f] 24a
[24FL 24aa
24F_ 24gg#X
24FJJ] 24aa
[24dLL [24f 24bn
24d_ 24f_ 24a#X
24dJ] 24f] 24bn
[24GnL 24bbn
24G_ 24aa#X
24GJJ] 24bbn
=224
[24cLL 24cc
24c_ 24bn
24cJ] 24cc
[24gL 24ee
24g_ 24dd#X
24gJJ] 24ee
[24eLL 24gg
24e_ 24ff#X
24eJ] 24gg
[24cL 24ccc
24c_ 24bbn
24cJJ] 24ccc
=225
[24GLL 24eee
24G_ 24ccc
24GJ] 24gg
[24cL [24e 24ccc
24c_ 24e_ 24gg
24cJJ] 24e] 24ee
[24GLL 24gg
24G_ 24ff
24GJ] 24dd
[24dL [24f 24ff
24d_ 24f_ 24dd
24dJJ] 24f] 24bn
=226
[24CLL 24cc
24C_ 24bn
24CJ] 24cc
[24GL 24ee
24G_ 24dd#X
24GJJ] 24ee
[24ELL 24gg
24E_ 24ff#X
24EJ] 24gg
[24CL 24ccc
24C_ 24bbn
24CJJ] 24ccc
=227
[24GGLL 24eee
24GG_ 24ccc
24GGJ] 24gg
[24CL [24E 24ccc
24C_ 24E_ 24gg
24CJJ] 24E] 24ee
[24GGLL 24gg
24GG_ 24ff
24GGJ] 24dd
[24DL [24F 24ff
24D_ 24F_ 24dd
24DJJ] 24F] 24bn
=228
[24CLL [24E 24cc
24C_ 24E_ 24dd
24CJ] 24E] 24cc
24bnL
24cc
24cc#XJJ
16ddLL
16ee-XJ
16eenL
16ffJJ
=229
[24cLL [24e-X 24ff#X
24c_ 24e-_ 24gg
24cJ] 24e-] 24ff#X
[24CL 24een
24C_ 24ff#X
24CJJ] 24gg
[24F#XLL [24A 24aa
24F#_ 24A_ 24bb-
24F#J] 24A] 24ccc
[24CL 24ccc#X
24C_ 24ddd
24CJJ] 24ccc#X
=230
[26GLL [26B- 26eee-X
26G_ 26B-_ 26ddd
26G_ 26B-_ 26ccc
104GJkk] 104B-] [104bb-
[52.CKL 52.bb-]
26C_ 26aa
26C_ 26ccc
52CJJk] [52bb-
[52B-KLL [52d 52bb-]
26B-_ 26d_ 26aa
26B-_ 26d_ 26gg
52.B-Jk] 52.d] [52.bb-
[104CKKL 104bb-]
26C_ 26aa
26C_ 26gg
26CJJ] 26ff
=231
[24B-LL [24d-X 24ee
24B-_ 24d-_ 24ff
24B-J] 24d-] 24ee
[24CL 24ddn
24C_ 24ee
24CJJ] 24ff
[24GLL [24B- 24gg
24G_ 24B-_ 24aa
24GJ] 24B-] 24bb-
[24CL 24bbn
24C_ 24ccc
24CJJ] 24bb-X
=232
[24FLL [24A 24ddd
24F_ 24A_ 24ccc
24FJ] 24A] 24bb-
[24CL 24aa
24C_ 24ccc
24CJJ] 24bb-
[32ALLL [32c 32aa
32A_ 32c_ 32gg
32A_ 32c_ 32ff
32AJJ] 32c] 32ee
[48CLL 48gg
48C_ 48ff
48C_ 48ee
48C_ 48dd
48C_ 48cc
48CJJJ] 48b-
=233
[24ALL [24c 24a
24A_ 24c_ 24b-
24AJ] 24c] 24a
[24CL 24g
24C_ 24a
24CJJ] 24b-
[32FLLL [32A 32cc
32F_ 32A_ 32dd
32F_ 32A_ 32ee
32FJJ] 32A] 32ff
[32CLL 32gg
32C_ 32aa
32C_ 32bb-
32CJJJ] 32aa
=234
[26GLL [26B- 26ccc
26G_ 26B-_ 26bb-
26G_ 26B-_ 26aa
104GJkk] 104B-] [104gg
[52.C#XKL 52.gg]
26C#_ 26ff
26C#_ 26ee
52C#JJk] [52gg
[52FKLL [52A 52gg]
26F_ 26A_ 26ff
26F_ 26A_ 26ee
52.FJk] 52.A] [52.dd
[104DKKL 104dd]
26D_ 26ccn
26D_ 26b-
26DJJ] 26a
=235
[32FLLL [32G 32dd
32F_ 32G_ 32cc
32F_ 32G_ 32b-
32FJJ] 32G] 32a
[32BB-LL 32g
32BB-_ 32f
32BB-_ 32e
32BB-JJJ] 32d
[24CLL [24F [24A 24c
24C_ 24F_ 24A_ 24d
24C'J] 24F] 24A] 24c
[24CL [24E 24B-
24C_ 24E_ 24A
24C'JJ] 24E] 24G
=236
[24FFLL 24F
24FF_ 24G
24FFJ] 24A
24B-L
24c
24dJJ
24eLL
24f
24gJ
24aL
24b-
24bnJJ
=237
24CCLL [24cc
24EE 24cc_
24GGJ 24cc_
24CL 24cc_
24E 24cc_
24GJJ 24cc_
[8cL 8cc]
8c'J] 8b- 8ee
=238
24CCLL [24a [24ff
24FF 24a_ 24ff_
24AAJ 24a_ 24ff_
24CL 24a_ 24ff_
24F 24a_ 24ff_
24AJJ 24a_ 24ff_
[8cL 8a] 8ff]
8c'J] 8ff 8aa
=239
24CCLL [24ee [24bb-
24EE 24ee_ 24bb-_
24GGJ 24ee_ 24bb-_
24CL 24ee_ 24bb-_
24E 24ee_ 24bb-_
24GJJ 24ee_ 24bb-_
[8cL 8ee] 8bb-]
8c'J] 8bb- 8eee
=240
24CCLL [24aa [24fff
24FF 24aa_ 24fff_
24AAJ 24aa_ 24fff_
24CL 24aa_ 24fff_
24F 24aa_ 24fff_
24AJJ 24aa_ 24fff_
[8cL 8aa] 8fff]
8c'J] 8aa 8ccc
=241
24CCLL [24gg [24bb-
24EE 24gg_ 24bb-_
24GGJ 24gg_ 24bb-_
24CL 24gg_ 24bb-_
24E 24gg_ 24bb-_
24GJJ 24gg_ 24bb-_
8c'L 8gg] 8bb-]
8c#X'J 8b- 8ee
=242
[24dLL 24ff
24d_ 24gg
24dJ] 24ff
24eeL
24ff
24ggJJ
24gg#XLL
24aa
24bb-J
24bbnL
24ccc
24ccc#XJJ
=243
[24BB-LL [24D [24G 24ddd
24BB-_ 24D_ 24G_ 24ccc
24BB-J] 24D] 24G] 24bb-
24aaL
24gg
24ffJJ
[24CLL [24G [24B- 24ee
24C_ 24G_ 24B-_ 24dd
24CJ] 24G] 24B-] 24cc
24b-L
24a
24gJJ
=244
[24FLL [24A 24f
24F_ 24A_ 24c
24FJ] 24A] 24B-
*clefF4
24AL
24G
24FJJ
[24CCLL 24E
24CC_ 24D
24CCJ] 24C
24BB-L
24AA
24GGJJ
=245
8FFF 8FF
8r
*clefG2
8c 8f
8r
=246
8fL
16aJk
16r
8aL
16ccJk
16r
=247
[16b-LL
16b-J_ 16cc
16b-L_ 16dd
16b-JJ] 16ee
[16aLL 16ff
16aJ_ 16ee
16aL_ 16dd
16aJJ] 16cc
=248
[16gLL 16b-
16gJ] 16cc
[16fL 16dd-X
16fJJ] 16cc
[16eLL 16b-
16eJ] 16cc
[16fL 16b-
16fJJ] 16cc
=249
[16gLL 16b-
16gJ_ 16cc
16gL_ 16b-
16gJJ] 16cc
[16ccLL
16ccJ]
16bnL 16ff
16ccJJ
=250
16aLL [16ff
16ccJ 16ff]
16bnL 16aa
16ccJJ
16b-XLL [16aa
16aJ 16aa]
16gL 16ccc
16fJJ
=251
16eLL [16bb-
16cJ 16bb-_
16dL 16bb-_
16eJJ 16bb-]
16fLL [16aa
16gJ 16aa_
16aL 16aa_
16fJJ 16aa]
=252
16b-LL [16gg
16gJ 16gg]
16dL [16gg
16B-JJ 16gg]
16cLL [16ee 16ff
16eJ 16ee]
16gL 16dd
16b-JJ 16ee
=253
8aL [8ff
8fJ 8ff]
8CL [8ff [8aa
16FL 16ff] 16aa]
16eeJJ 16gg
=254
8FL [8dd [8ff
16AL 16dd] 16ff]
16ccJJ 16ee
[16A'LL 16b- 16dd
16A'J] 16a 16cc
16c'L 16g 16b-
16f'JJ 16a
=255
[16B-LL
16B-'J_ 16e 16g
8B-J] 8cc
[16ALL
16A'J_ 16f 16a
8AJ] 8cc
=256
[16GLL 16b-
16GJ] 16cc
[16FL [16b- 16dd-X
16FJJ] 16b-] 16cc
[16ELL [16b- 16dd-X
16EJ] 16b-] 16cc
[16FL [16b- 16dd-X
16FJJ] 16b-] 16cc
=257
8GL 8b- 8cc
8CJ
8CCL [8aa [8ccc [8fff
16FFL 16aa] 16ccc] 16fff]
16ggJJ 16bb- 16eee
=258
8FFL [8ff [8aa [8ddd
16AAL 16ff] 16aa] 16ddd]
16eeJJ 16gg 16ccc
[16AA'LL 16dd 16ff 16bb-
16AA'J] 16cc 16ee 16aa
16C'L 16b- 16dd 16gg
16a'JJ 16cc 16ff
=259
[16BB-LL
16BB-'J_ 16g 16cc 16ee
8BB-J] 8ee 8gg 8ccc
[16AALL
16AA'J_ 16a 16cc 16ff
8AAJ] 8ff 8aa 8ccc
=260
[16GGLL
16GG'J] 16cc 16ee 16gg
[16GGL
16GG'JJ] 16cc 16ee 16gg
[16AALL
16AA'J] 16dd 16ff 16gg
[16BBnL
16BB'JJ] 16dd 16ff 16gg
=261
[16CLL 16cc 16gg
16CJ_ 16ee 16ff#X
16CL_ 16cc 16gg
16CJJ] 16ee 16ff#X
[16DLL 16cc 16gg
16DJ] 16ee 16ff#X
[16EL 16cc 16gg
16EJJ] 16ee 16ff#X
=262
[16GGLL [16C 16cc 16aa
16GGJ] 16C] 16ee 16gg
16G'L 16ee 16gg
16ee'JJ 16gg
[16GGLL [16BBn 16dd 16aa
16GGJ] 16BB] 16ff 16gg
16G'L 16ff 16gg
16ff'JJ 16gg
=263
[16CLL 16cc 16gg
16CJ_ 16ee 16ff#X
16CL_ 16cc 16gg
16CJJ] 16ee 16ff#X
[16DLL 16cc 16gg
16DJ] 16ee 16ff#X
[16EL 16cc 16gg
16EJJ] 16ee 16ff#X
=264
[16GGLL [16C 16cc 16aa
16GGJ] 16C] 16ee 16gg
16G'L 16ee 16gg
16ee'JJ 16gg
[16GGLL [16BBn 16dd 16aa
16GGJ] 16BB] 16ff 16gg
16G'L 16ff 16gg
16ff'JJ 16gg
=265
[8C;L 8ee 8gg
8C;J] 8cc 8dd 8ee 8ff 8gg
8ccL
16aJk
16r
=266
8aL
16fJk
16r
8fL 8ff
16ccJk
16r
=267
[16b-LL
16cJ 16b-_
16dL 16b-_
16eJJ 16b-]
16fLL [16a
16eJ 16a_
16dL 16a_
16cJJ 16a]
=268
[16B-LL 16e 16g
16B-'J] 16cc
[16AL 16f
16A'JJ] 16cc
[16GLL 16e 16b-
16G'J] 16cc
[16FL 16f 16a
16F'JJ] 16cc
=269
[16CLL 16e 16g
16CJ] 16cc
16bnL
16b-XJJ
[16cLL 16a
16cJ] 16b-
16AL 16bn
16ccJJ
=270
[16ALL 16cc#X
16AJ] 16dd
16FL 16ee-X
16eenJJ
16FLL [16f 16ff
16fJ] 16gg
16cnL 16aa
16ffJJ
=271
[16B-LL 16ee
16B-J_ 16cc
16B-L_ 16dd
16B-JJ] 16ee
[16ALL 16ff
16AJ] 16ee
[16A-XL 16dd
16A-JJ] [16cc
=272
[16GLL 16cc]
16GJ_ 16f
16GL_ 16bn
16GJJ_ 16f
16GLL_ [16A 16cc
16GJ_ 16A] 16f
16GL_ [16Bn 16dd
16GJJ] 16B] 16f
=273
8c'L [8e [8cc
[8CJ 8e] 8cc]
16CLL] [16ee [16gg
16C'J 16ee_ 16gg_
16E'L 16ee_ 16gg_
16F#X'JJ 16ee] 16gg]
=274
8G'L [8cc [8ee
[8GGJ 8cc] 8ee]
16GGLL] [16f [16dd
16GG'J 16f_ 16dd_
16AA'L 16f_ 16dd_
16BBn'JJ 16f] 16dd]
=275
8C'L [8e [8cc
[8CCJ 8e] 8cc]
16CCLL] [16ee [16gg
16CC'J 16ee_ 16gg_
16EE'L 16ee_ 16gg_
16FF#X'JJ 16ee] 16gg]
=276
8GG'L [8cc [8ee
[8GGGJ 8cc] 8ee]
16GGGLL] [16f [16dd
16GGG'J 16f_ 16dd_
16AAA'L 16f_ 16dd_
16BBBn'JJ 16f] 16dd]
=277
4CC 4e 4cc
8cL
16AJk
16r
=278
8F#XL
16DJk
16r
8f#XL 8aa
16dJk 16ddd
16r
=279
8gL 8bb-
16b-Jk 16gg
16r
8B-L
16GJk
16r
=280
8EL
16CJk
16r
8eL 8gg
16cJk 16ccc
16r
=281
8fL 8aa
16aJk 16ff
16r
8aL 8cc
16ccJk 16ff
16r
=282
[16ccLL [16ff
16ccJ] 16ff]
16bnL 16ff 16aa
16ccJJ
16b-XLL [16ff [16aa
16aJ 16ff] 16aa]
16gL 16aa 16ccc
16fJJ
=283
16eLL [16aa [16ccc
16dJ 16aa] 16ccc]
16eL 16gg 16bb-
16c#XJJ
16dLL [16gg [16bb-
16eJ 16gg] 16bb-]
16fL 16ff 16aa
16dJJ
=284
16B-LL [16ff [16ddd
16A'J 16ff] 16ddd]
16B-L [16ff [16ddd
16Bn'JJ 16ff] 16ddd]
16cLL [16aa [16ccc
16Bn'J 16aa] 16ccc]
16cL [16b-X [16ee
16C'JJ 16b-] 16ee]
=285
16FLL [16a [16ff
16CJ 16a] 16ff]
8FFJ
8bnL 8cc
8bnJ 8cc
=286
8ccL
16eeJk
16r
8B-L
16CJk
16r
=287
8ccL
16ffJk
16r
8AL
16CJk
16r
=288
8ccL
16bb-Jk
16r
8EL
16CJk
16r
=289
8ccL
16aaJk
16r
8FL
16CJk
16r
=290
16ccLL
16eeJ
16B-L
16CJJ
16dd#XLL
16eeJ
16B-L
16C#XJJ
=291
16eeLL
16ffJ
16AL
16DJJ
16ffLL 16gg
16fffJ
16BnL
16DJJ
=292
16ffLL 16aa
16fffJ
16cL
16CJJ
16ggLL 16bb-
16eeeJ
16ccL
16cJJ
=293
16ffLL 16aa
16fffJ
16fL
16FJJ
16b-LL
16eeJ
16cL
16CJJ
=294
*k[b-e-a-d-]
*f:
16anLL
16ffJ
16FL
16FFJJ
4cc
=295
[8FFL 8a-
8FFJ_ 8F 8f
8FFL_ 8F 8a-
8FFJ_ 8F 8cc
=296
8FFL_ 8F [8en [8b- [8dd-
8FFJ_ 8F 8e_ 8b-_ 8dd-_
8FFL_ 8F 8e] 8b-] 8dd-]
8FFJ_ 8F 8f 8a- 8cc
=297
8FFL_ 8F 8g 8b- 8een
8FFJ_ 8F 8a- 8cc 8ff
8FFL_ 8F 8b- 8dd- 8gg
8FFJ_ 8F 8a- 8cc 8ff
=298
8FFL_ 8F [8g [8b- [8ff
8FFJ_ 8F 8g_ 8b-_ 8ff]
8FFL_ 8F 8g] 8b-] 8een
8FFJ_ 8F 8cc
=299
8FFL_ 8F 8a-
8FFJ_ 8F 8f
8FFL_ 8F 8a-
8FFJ] 8F 8cc
=300
[8FFL [8en [8b- [8dd-
8FFJ_ 8F 8e_ 8b-_ 8dd-_
8FFL_ 8F 8e] 8b-] 8dd-]
8FFJ] 8F 8f [8a- [8cc
=301
8BB-L [8d- 8a-] 8cc]
8BB-J 8d-] 8g 8b-
8CL 8c 8f 8a-
8CJ 8B- 8en 8g
=302
8FFL [8B- [8en [8g
8CJ 8B-] 8e] 8g]
8FL 8A- 8f
8cJ
=303
8A-L
8FJ
8A-L
8cJ
=304
[8B-L [8d-
8B-J_ 8d-_ 8en 8een
8B-L] 8d-] 8f 8ff
8A-J 8c [8dd- [8ddd-
=305
8GL 8B- 8dd-] 8ddd-]
8F'J 8A- 8dd- 8ddd-
8En'L 8G 8dd- 8ddd-
8F'J 8A- 8dd- 8ddd-
=306
[8GL [8B- 8dd- 8ddd-
16GL_ 16B-_ 16bb-
16GJJ] 16B-] 16gg
8eenL
8cJ
=307
8A-L
8FJ
8A-L
8cJ
=308
[8B-L [8d-
8B-J_ 8d-_ 8en 8een
8B-L] 8d-] 8f 8ff
8A-J [8c [8ff [8fff
=309
[8GL 8c] 8ff] 8fff]
8GJ] [8c [8ee- [8eee-
[8GL 8c] 8ee-] 8eee-]
8GJ] 8Bn 8ddn 8dddn
=310
8CL [8cc [8ccc
8E-J 8cc] 8ccc]
8A-L
8F#XJ
=311
[8GL
8GJ_ 8cc 8ee-
8GL] 8ee- 8gg
8GGJ 8f 8bn
=312
8CL [8e- [8cc
8E-J 8e-] 8cc]
8A-L
8F#XJ
=313
[8GL
8GJ_ 8cc 8ee-
8GL] 8ddn 8ee- 8gg
8GGJ 8f 8bn
=314
4.C; 4.e- 4.cc
8cc
=315
8dd-L
8ccJ
8ffL
8cJ 8cc
=316
[8FFFL [8FF 8d- [8b-
8FFFJ_ 8FF_ 8c 8b-]
8FFFL_ 8FF_ 8f [8a-
8FFFJ_ 8FF_ 8c 8a-]
=317
8FFFL_ 8FF_ 8B- 8d- 8g
8FFFJ_ 8FF_ 8A- 8c 8f
8FFFL] 8FF] 8G 8B- 8en
8FJ [8A- [8c [8f
=318
[8CL 8A-] 8c] 8f]
8CJ_ [8c 8f 8a-
8CL] 8c] 8en 8g
8cJ 8cc
=319
8d-L 8dd-
8cJ 8cc
8fL 8ff
8CJ 8c 8cc
=320
[8FFL 8D- [8B- [8b-
8FFJ_ 8C 8B-] 8b-]
8FFL_ 8F [8A- [8a-
8FFJ] 8C 8A-_ 8a-_
=321
[8GGL 8E- 8A-] 8a-]
8GGJ] 8C 8G 8g
[8GGL 8F 8An 8an
8GGJ] 8Dn 8Bn 8bn
=322
[8CL [8E- 8c 8cc
8CJ] 8E-] 8f#X 8ff#X
8gL 8gg
8e-J 8ee-
=323
[8cL [8e- [8cc
8F#XJ 8c_ 8e-_ 8cc_
8GL 8c] 8e-] 8cc]
8GGJ 8Bn 8dn 8bn
=324
[8C'L 8c 8e- 8cc
8CJ] 8f#X 8ff#X
8gL 8gg
8e-J 8ee-
=325
[8cL [8e- [8cc
8F#XJ 8c_ 8e-_ 8cc_
8GL 8c] 8e-] 8cc]
8GGJ 8Bn 8dn 8bn
=326
4C 4c 4e- 4cc
8g-XL 8ee-
8g-XJ 8ee-
=327
[8FL 8f 8dd-
8FJ_ 8e- 8cc 8ee-
8FL_ 8d- 8b- 8gg-X
8FJ] 8c 8a- 8ff
=328
[8BB-L [8B- [8f 8ee-
8BB-J] 8B-] 8f] 8dd-
8d-L 8b-
8d-J 8b-
=329
[8CL 8c 8a-
8CJ_ 8B- 8g 8b-
8CL_ 8A- 8f 8dd-
8CJ] 8G 8en 8cc
=330
[8FFL [8F [8c 8b-
8FFJ] 8F] 8c] 8a-
8CL
8CJ
=331
8AA-L
8FFJ
8AA-L
8CJ
=332
[8D-L
8D-J_ 8f 8a- 8ff
8D-L] 8f 8a- 8ff
8CJ 8f 8a- 8ff
=333
[8BB-L 8a- 8cc 8aa-
8BB-J] [8g [8b- [8gg
[8CL 8g] 8b-] 8gg]
8CJ] [8en [8g [8een
=334
[8FFL 8en] 8g] 8een]
8FFJ] 8f 8a- 8ff
8FL
[8cJ [8cc
=335
[8CL [8G [8B- 8c] 8cc]
8C'J] 8G] 8B-] [8d- [8dd-
[8CL [8G [8B- 8d-] 8dd-]
8C'J] 8G] 8B-] 8c 8cc
=336
[8CL [8F [8A-
8C'J] 8F] 8A-] [8en [8een
[8CL [8F [8A- 8e] 8ee]
8C'J] 8F] 8A-] 8f 8ff
=337
[8CL [8En [8G
8C'J] 8E] 8G] [8cc [8ccc
[8CL [8En [8G 8cc] 8ccc]
8C'J] 8E] 8G] 8b- 8bb-
=338
[8CL [8F [8A-
8C'J] 8F] 8A-] [8a- [8aa-
[8CL [8F [8A- 8a-] 8aa-]
8C'J] 8F] 8A-] 8f 8ff
=339
[8CL [8G [8B-
8CJ] 8G] 8B-] [8d- [8dd-
[8CL [8G [8B- 8d-] 8dd-]
8CJ] 8G] 8B-] 8c 8cc
=340
[8FL [8A-
8FJ] 8A-] [8en [8een
[8D-L [8F [8A- 8e] 8ee]
8D-J] 8F] 8A-] 8f 8ff
=341
[8BB-L [8F [8G
8BB-J] 8F] 8G] 8b- 8bb-
[8CL [8G [8B-
8CJ] 8G] 8B-] 8en 8een
=342
8FL 8A-
8fJ 8ff
8CL
8cJ 8cc
=343
*k[b-]
*F:
8FFL
8FJ 8f
16bbnLL
16cccJ
16bbnL
16cccJJ
=344
*M3/4
8F'L [8aa
8f'J 8aa_
[12FL 12aa]
24F'k] [24ff
[24f'K 24ff]
12f'J] 12gg
[12F'L 12aa
24F'k] [24bb-
[24e-X'K [24f 24bb-]
12e-'J] 12f] 12ccc
=345
8F'L 8ccc
8d'J 8f [8bbn
8F'L 8bb]
8e'J 8g [8bb-X
8F'L 8bb-]
8c'J 8f [8aa
=346
8F'L 8aa]
8B-'J 8e [8gg
8F'L 8gg]
8A'J 8f 8ff
8D'L 8ee
8Bn'J 8f 8ff
=347
8C'L [8aa
8c'J 8f 8aa]
8C'L 8gg
8c'J 8e
[16CLL 16bbn
16C'J] 16ccc
[16B-XL [16e 16bbn
16B-'JJ] 16e] 16ccc
=348
8F'L [8aa
8c'J 8f 8aa_
[12FL 12aa]
24F'k] [24ff
[24cK [24f 24ff]
12c'J] 12f] 12gg
[12FL 12aa
24F'k] [24bb-
[24e-XK [24f 24bb-]
12e-'J] 12f] 12ccc
=349
8F'L 8ccc
8d'J 8f [8bbn
8F'L 8bb]
8e'J 8g [8bb-X
8F'L 8bb-]
8c'J 8f [8aa
=350
8BB-'L 8aa]
8B-'J 8d [8gg
8BB-'L 8gg]
8B-'J 8d 8bb-
8C'L 8dd
8G'J 8B- 8ee
=351
8F'L [8gg
8B-'J 8e 8gg]
8F'L 8ff
8A'J 8f
16bnLL
16ccJ
16bnL
16ccJJ
=352
8FF'L [8a
8F'J 8a_
[16FFLL 16a]
16FF'J] 16f
[16FL 16e
16F'JJ] 16f
[16FFLL 16g
16FF'J] 16a
[16E-XL [16F 16b-
16E-'JJ] 16F] 16cc
=353
[16FFLL 16cc
16FF'J] 16bn
[16DL [16F 16dd
16D'JJ] 16F] 16cc
[16FFLL 16cc
16FF'J] 16b-X
[16EL [16G 16dd
16E'JJ] 16G] 16b-
[16FFLL 16b-
16FF'J] 16a
[16FL [16A 16cc
16F'JJ] 16A] 16a
=354
[16DLL 16a
16D'J] 16g
[16FL [16B- 16b-
16F'JJ] 16B-] 16g
[16DLL 16g
16D'J] 16f
[16FL [16Bn 16a
16F'JJ] 16B] 16f
[16DLL 16e
16D'J] 16f
[16FL [16Bn 16e
16F'JJ] 16B] 16f
=355
8C'L [8a
8F'J 8c 8a]
8C'L 8g
8E'J 8c
[16CLL 16bn
16C'J] 16cc
[16EL [16B-X 16bn
16E'JJ] 16B-] 16cc
=356
8FF'L [8a
8F'J 8A 8a_
[16FFLL 16a]
16FF'J] 16f
[16FL [16A 16e
16F'JJ] 16A] 16f
[16FFLL 16g
16FF'J] 16a
[16E-XL [16F 16b-
16E-'JJ] 16F] 16cc
=357
[16FFLL 16cc
16FF'J] 16bn
[16DL [16F 16dd
16D'JJ] 16F] 16cc
[16FFLL 16cc
16FF'J] 16b-X
[16EL [16G 16dd
16E'JJ] 16G] 16b-
[16FFLL 16b-
16FF'J] 16a
[16FL [16A 16cc
16F'JJ] 16A] 16a
=358
[16GLL 16a
16G'J] 16g
[16cL [16e 16f#X
16c'JJ] 16e] 16g
[16GLL 16a
16G'J] 16g
[16cL [16e 16f#X
16c'JJ] 16e] 16g
[16GLL 16g#X
16G'J] 16a
[16dL [16fn 16b-
16d'JJ] 16f] 16bn
=359
[16CLL 16cc
16C'J] 16bn
[16cL [16e 16dd
16c'JJ] 16e] 16cc
[16CLL 16ee
16C'J] 16dd
[16GL [16c 16ff
16G'JJ] 16c] 16ee
[16CLL 16gg
16C'J] 16ff#X
[16EL [16G 16aa
16E'JJ] 16G] 16gg
=360
[16GGLL 16ff
16GG'J] 16ee
[16EL [16G 16dd
16E'JJ] 16G] 16cc
[16GGLL 16bn
16GG'J] 16cc
[16EL [16G 16dd
16E'JJ] 16G] 16cc
[16GGLL 16bn
16GG'J] 16ff
[16DL [16F 16dd
16D'JJ] 16F] 16bn
=361
[16CLL 16cc
16C'J] 16bn
[16cL [16e 16dd
16c'JJ] 16e] 16cc
[16CLL 16ee
16C'J] 16dd
[16GL [16c 16ff
16G'JJ] 16c] 16ee
[16CLL 16gg
16C'J] 16ff#X
[16EL [16G 16aa
16E'JJ] 16G] 16gg
=362
[16GGLL 16ff
16GG'J] 16ee
[16EL [16G 16dd
16E'JJ] 16G] 16cc
[16GGLL 16bn
16GG'J] 16cc
[16EL [16G 16dd
16E'JJ] 16G] 16cc
[16GGLL 16bn
16GG'J] 16ff
[16DL [16F [16Bn 16dd
16D'JJ] 16F] 16B] 16bn
=363
2C; 2E 2G 2c 2cc
16ccLL
16cccJ
16ccL
16cccJJ
=364
16FLL [16a [16aa
16cJ 16a_ 16aa_
16BnL 16a_ 16aa_
16cJJ 16a_ 16aa_
16B-XLL 16a_ 16aa_
16cJ 16a] 16aa]
16AL [16f [16ff
16c'JJ 16f] 16ff]
16GLL [16a [16aa
16c'J 16a] 16aa]
16FL [16cc [16ccc
16c'JJ 16cc] 16ccc]
=365
16ELL [16cc [16ccc
16cJ 16cc] 16ccc]
16GL [16bn [16bbn
16cJJ 16b_ 16bb_
16ELL 16b_ 16bb_
16cJ 16b] 16bb]
16CL [16b-X [16bb-X
16cJJ 16b-_ 16bb-_
16FLL 16b-_ 16bb-_
16cJ 16b-] 16bb-]
16BnL [16a [16aa
16cJJ 16a_ 16aa_
=366
16B-LL 16a_ 16aa_
16cJ 16a] 16aa]
16EL [16g [16gg
16cJJ 16g_ 16gg_
16B-LL 16g_ 16gg_
16cJ 16g] 16gg]
16AL [16f [16ff
16c'JJ 16f] 16ff]
16GLL [16b- [16bb-
16c'J 16b-] 16bb-]
16FL [16a [16aa
16c'JJ 16a] 16aa]
=367
16CLL [16f#X [16ff#X
16cJ 16f#] 16ff#]
16EL [16g [16gg
16cJJ 16g] 16gg]
16GLL
16cJ
16B-L [16cc
16cJJ 16cc]
16GLL 16cc
16cJ 16ccc
16EL 16cc
16cJJ 16ccc
=368
16FLL [16a [16aa
16cJ 16a_ 16aa_
16BnL 16a_ 16aa_
16cJJ 16a_ 16aa_
16B-XLL 16a_ 16aa_
16cJ 16a] 16aa]
16AL [16f [16ff
16c'JJ 16f] 16ff]
16GLL [16a [16aa
16c'J 16a] 16aa]
16FL [16cc [16ccc
16c'JJ 16cc] 16ccc]
=369
16ELL [16cc [16ccc
16cJ 16cc] 16ccc]
16GL [16bn [16bbn
16cJJ 16b_ 16bb_
16ELL 16b_ 16bb_
16c#XJ 16b] 16bb]
16GL [16b-X [16bb-X
16c#XJJ 16b-_ 16bb-_
16FLL 16b-_ 16bb-_
16dJ 16b-] 16bb-]
16AL [16a [16aa
16dJJ 16a_ 16aa_
=370
16GLL 16a_ 16aa_
16eJ 16a] 16aa]
16cL [16g [16gg
16GJJ 16g_ 16gg_
16ELL 16g_ 16gg_
16GJ 16g] 16gg]
16EL [16f [16ff
16C'JJ 16f] 16ff]
16GGLL [16e [16ee
16BBn'J 16e] 16ee]
16DL [16d [16dd
16G'JJ 16d] 16dd]
=371
16CLL [16c [16cc
16GJ 16c] 16cc]
16F#XL [16e [16ee
16GJJ 16e_ 16ee_
16FnLL 16e_ 16ee_
16GJ 16e] 16ee]
16EL [16g [16gg
16GJJ 16g_ 16gg_
16DLL 16g_ 16gg_
16GJ 16g] 16gg]
16CL [16cc [16ccc
16GJJ 16cc_ 16ccc_
=372
16GGLL 16cc_ 16ccc_
16GJ 16cc] 16ccc]
16CL [16ee [16eee
16GJJ 16ee_ 16eee_
16ELL 16ee_ 16eee_
16GJ 16ee] 16eee]
16CL [16ee [16eee
16G'JJ 16ee] 16eee]
16GGLL [16ff [16fff
16G'J 16ff] 16fff]
16DL [16bn [16bbn
16G'JJ 16b] 16bb]
=373
16CLL [16cc [16ccc
16GJ 16cc] 16ccc]
16F#XL [16e [16ee
16GJJ 16e_ 16ee_
16FnLL 16e_ 16ee_
16GJ 16e] 16ee]
16EL [16g [16gg
16GJJ 16g_ 16gg_
16DLL 16g_ 16gg_
16GJ 16g] 16gg]
16CL [16cc [16ccc
16GJJ 16cc_ 16ccc_
=374
16GGLL 16cc_ 16ccc_
16GJ 16cc] 16ccc]
16CL [16ee [16eee
16GJJ 16ee_ 16eee_
16ELL 16ee_ 16eee_
16GJ 16ee] 16eee]
16CL [16ee [16eee
16G'JJ 16ee] 16eee]
16GGLL [16ff [16fff
16G'J 16ff] 16fff]
16DL [16bn [16bbn
16G'JJ 16b] 16bb]
=375
16CLL [16cc [16ccc
16cJ 16cc_ 16ccc_
16BnL 16cc_ 16ccc_
16cJJ 16cc] 16ccc]
16BnLL
16cJ
16B-XL
16cJJ
16ALL
16cJ
16GL
16cJJ
=376
16F#XLL [16cc [16dd
16dJ 16cc] 16dd]
16GL [16cc [16dd
16dJJ 16cc] 16dd]
16ALL [16cc [16dd
16dJ 16cc] 16dd]
16DL [16cc [16dd
16dJJ 16cc] 16dd]
16ELL [16cc [16dd
16dJ 16cc] 16dd]
16F#XL [16cc [16dd
16dJJ 16cc] 16dd]
=377
16GLL [16b- [16dd
16dJ 16b-] 16dd]
16AL [16gg
16dJJ 16gg]
16B-LL [16gg
16dJ 16gg_
16AL 16gg_
16dJJ 16gg]
16GLL
16dJ
16FL
16dJJ
=378
16ELL [16b- [16cc
16cJ 16b-] 16cc]
16FL [16b- [16cc
16cJJ 16b-] 16cc]
16GLL [16b- [16cc
16cJ 16b-] 16cc]
16CL [16b- [16cc
16cJJ 16b-] 16cc]
16DLL [16b- [16cc
16cJ 16b-] 16cc]
16EL [16b- [16cc
16cJJ 16b-] 16cc]
=379
16FLL [16a [16cc
16cJ 16a] 16cc]
16GL [16ff
16cJJ 16ff]
16ALL [16ff
16cJ 16ff_
16B-L 16ff_
16cJJ 16ff]
16BnLL [16cc
16c'J 16cc]
16dL [16cc
16c'JJ 16cc]
=380
16ALL [16cc
16cJ 16cc]
16BnL [16f [16ff
16cJJ 16f_ 16ff_
16B-XLL 16f_ 16ff_
16cJ 16f] 16ff]
16AL [16a [16aa
16cJJ 16a_ 16aa_
16GLL 16a_ 16aa_
16cJ 16a] 16aa]
16FL [16cc [16ccc
16cJJ 16cc_ 16ccc_
=381
16ELL 16cc_ 16ccc_
16cJ 16cc] 16ccc]
16GL [16bn [16bbn
16cJJ 16b_ 16bb_
16ELL 16b_ 16bb_
16GJ 16b] 16bb]
16CL [16b-X [16bb-X
16EJJ 16b-_ 16bb-_
16FLL 16b-_ 16bb-_
16AJ 16b-] 16bb-]
16DL [16a [16aa
16FJJ 16a_ 16aa_
=382
16BB-LL 16a_ 16aa_
16DJ 16a] 16aa]
16GL [16dd [16ddd
16B-JJ 16dd_ 16ddd_
16CLL 16dd_ 16ddd_
16FJ 16dd] 16ddd]
16AL [16cc [16ccc
16cJJ 16cc_ 16ccc_
16CLL 16cc_ 16ccc_
16GJ 16cc] 16ccc]
16B-L [16e [16ee
16cJJ 16e] 16ee]
=383
[16FLL [16A 16f 16ff
16FJ_ 16A_ 16cc
16FL_ 16A_ 16bn
16FJJ] 16A] 16cc
16bnLL
16ccJ
16ddL
16ccJJ
16b-XLL
16aJ
16gL
16fJJ
=384
[16CLL
16C'J] 16g 16b- 16cc
[16EL
16E'JJ] 16g 16b- 16cc
[16DLL
16D'J] 16g 16b- 16cc
[16CL
16C'JJ] 16g 16b- 16cc
[16DLL
16D'J] 16g 16b- 16cc
[16EL
16E'JJ] 16g 16b- 16cc
=385
[16FLL
16F'J] 16f 16a 16cc
[16AL
16A'JJ] 16f 16a 16cc
[16GLL
16G'J] 16f 16a 16cc
[16FL
16F'JJ] 16f 16a 16cc
[16ELL
16E'J] 16f 16a 16cc
[16DL
16D'JJ] 16f 16a 16cc
=386
[16CLL
16C'J] 16g 16cc 16ee
[16BBnL
16BB'JJ] 16g 16cc 16ee
[16CLL
16C'J] 16g 16cc 16ee
[16DL
16D'JJ] 16g 16cc 16ee
[16CLL
16C'J] 16g 16cc 16ee
[16BB-XL
16BB-'JJ] 16g 16cc 16ee
=387
[16AALL
16AA'J] 16a 16cc 16ff
[16CL
16C'JJ] 16a 16cc 16ff
[16BB-LL
16BB-'J] 16a 16cc 16ff
[16AAL
16AA'JJ] 16a 16cc 16ff
[16GGLL
16GG'J] 16a 16cc 16ff
[16FFL
16FF'JJ] 16a 16cc 16ff
=388
[16CCLL
16CC'J] 16b- 16cc 16gg
[16EEL
16EE'JJ] 16g 16b- 16cc
[16DDLL
16DD'J] 16g 16b- 16cc
[16CCL
16CC'JJ] 16g 16b- 16cc
[16DDLL
16DD'J] 16g 16b- 16cc
[16EEL
16EE'JJ] 16g 16b- 16cc
=389
[16FFLL
16FF'J] 16f 16a 16cc
[16GGL
16GG'JJ] 16f 16a 16ff
[16AALL
16AA'J] 16f 16a 16ff
[16DDL
16DD'JJ] 16f 16a 16ff
[16EELL
16EE'J] 16f 16a 16ff
[16FFL
16FF'JJ] 16f 16a 16ff
=390
[16BBB-LL
16BBB-'J] 16g 16dd 16ff
[16AAAL
16AAA'JJ] 16g 16dd 16ff
[16GGGLL
16GGG'J] 16g 16dd 16ff
[16CCL
16CC'JJ] 16g 16b- 16ee
[16BBBnLL
16BBB'J] 16g 16b-X 16ee
[16CCL
16CC'JJ] 16g 16b- 16ee
=391
[16FFFLL
16FFF'J] 16a 16ff
[16AL
16A'JJ] 16a
[16GLL
16G'J] 16g
[16FL
16F'JJ] 16f
[16ELL
16E'J] 16e
[16DL
16D'JJ] 16d
=392
[16AALL
16AAJ_ 16a
16AAL_ [16E [16G
16AAJJ_ 16E] 16G] 16cc#X
16AALL_ [16E [16G
16AAJ_ 16E] 16G] 16bn
16AAL_ [16E [16G
16AAJJ_ 16E] 16G] 16a
16AALL_ [16E [16G
16AAJ_ 16E] 16G] 16bn
16AAL_ [16E [16G
16AAJJ] 16E] 16G] 16cc#X
=393
[16AALL
16AAJ_ 16dd
16AAL_ [16D [16F
16AAJJ_ 16D] 16F] 16ff
16AALL_ [16D [16F
16AAJ_ 16D] 16F] 16ee
16AAL_ [16D [16F
16AAJJ_ 16D] 16F] 16dd
16AALL_ [16D [16F
16AAJ_ 16D] 16F] 16ee
16AAL_ [16D [16F
16AAJJ] 16D] 16F] 16ff
=394
[16AALL
16AAJ_ 16A 16a
16AAL_ [16E [16G
16AAJJ_ 16E] 16G] 16c#X 16cc#X
16AALL_ [16E [16G
16AAJ_ 16E] 16G] 16Bn 16bn
16AAL_ [16E [16G
16AAJJ_ 16E] 16G] 16A 16a
16AALL_ [16E [16G
16AAJ_ 16E] 16G] 16Bn 16bn
16AAL_ [16E [16G
16AAJJ] 16E] 16G] 16c#X 16cc#X
=395
[16AALL
16AAJ_ 16d 16dd
16AAL_ [16D [16F
16AAJJ_ 16D] 16F] 16f 16ff
16AALL_ [16D [16F
16AAJ_ 16D] 16F] 16e 16ee
16AAL_ [16D [16F
16AAJJ_ 16D] 16F] 16d 16dd
16AALL_ [16D [16F
16AAJ_ 16D] 16F] 16e 16ee
16AAL_ [16D [16F
16AAJJ] 16D] 16F] 16f 16ff
=396
[16BB-LL
16BB-J_ 16d 16dd
16BB-L_ [16D [16F
16BB-JJ_ 16D] 16F] 16f 16ff
16BB-LL_ [16D [16F
16BB-J_ 16D] 16F] 16e 16ee
16BB-L_ [16D [16F
16BB-JJ_ 16D] 16F] 16d 16dd
16BB-LL_ [16D [16F
16BB-J_ 16D] 16F] 16f 16ff
16BB-L_ [16D [16F
16BB-JJ] 16D] 16F] 16e 16ee
=397
[16BB-LL
16BB-J_ 16d 16dd
16BB-L_ [16D [16G#X
16BB-JJ_ 16D] 16G#] 16c#X 16cc#X
16BB-LL_ [16D [16G#X
16BB-J_ 16D] 16G#] 16d 16dd
16BB-L_ [16D [16G#X
16BB-JJ_ 16D] 16G#] 16e 16ee
16BB-LL_ [16D [16G#X
16BB-J_ 16D] 16G#] 16f 16ff
16BB-L_ [16D [16G#X
16BB-JJ] 16D] 16G#] 16g#X 16gg#X
=398
[16AALL [16C#X [16E [16A 16aa
16AAJ_ 16C#_ 16E_ 16A_ 16a
16AAL_ 16C#_ 16E_ 16A_ 16cc#X
16AAJJ] 16C#] 16E] 16A] 16ee
16aaLL
16eeeJ
16ccc#XL
16aaJJ
[16ALL [16d [16f 16gg#X
16AJ_ 16d_ 16f_ 16fff
16AL] 16d] 16f] 16ddd
16AJJ 16d 16f 16gg#X
=399
[16ALL [16c#X [16e 16aa
16AJ_ 16c#_ 16e_ 16ccc#X
16AL_ 16c#_ 16e_ 16eee
16AJJ] 16c#] 16e] 16ccc#X
16aaLL
16eeJ
16cc#XL
16aJJ
[16AALL [16D [16F 16g#X
16AAJ_ 16D_ 16F_ 16ff
16AAL] 16D] 16F] 16dd
16AAJJ 16D 16F 16g#X
=400
[16AALL [16C#X [16E 16a
16AAJ_ 16C#_ 16E_ 16cc#X
16AAL_ 16C#_ 16E_ 16ee
16AAJJ] 16C#] 16E] 16aa
16ccc#XLL
16eeeJ
16ccc#XL
16aaJJ
[16ALL [16d [16f 16gg#X
16AJ_ 16d_ 16f_ 16fff
16AL] 16d] 16f] 16ddd
16AJJ 16d 16f 16gg#X
=401
[16ALL [16c#X [16e 16aa
16AJ_ 16c#_ 16e_ 16ccc#X
16AL_ 16c#_ 16e_ 16eee
16AJJ] 16c#] 16e] 16ccc#X
16aaLL
16eeJ
16cc#XL
16aJJ
[16AALL [16D [16F 16g#X
16AAJ_ 16D_ 16F_ 16ff
16AAL] 16D] 16F] 16dd
16AAJJ 16D 16F 16g#X
=402
[16AALL [16C#X [16E 16a
16AAJ_ 16C#_ 16E_ 16cc#X
16AAL_ 16C#_ 16E_ 16ee
16AAJJ] 16C#] 16E] 16aa
16ccc#XLL
16eeeJ
16ccc#XL
16aaJJ
16gg#XLL
16fffJ
16dddL
16gg#XJJ
=403
16aaLL
16eeeJ
16ccc#XL
16aaJJ
16gg#XLL
16fffJ
16dddL
16bbnJJ
16aaLL
16eeeJ
16ccc#XL
16aaJJ
=404
16gg#XLL
16fffJ
16dddL
16gg#XJJ
16aaLL
16eeeJ
16ccc#XL
16aaJJ
16gg#XLL
16fffJ
16dddL
16gg#XJJ
=405
16aaLL
16eeeJ
16ccc#XL
16aaJJ
16gg#XLL
16fffJ
16dddL
16gg#XJJ
16aaLL
16eeeJ
16ccc#XL
16aaJJ
=406
16gg#XLL
16aaJ
16bbnL
16aaJJ
16gg#XLL
16aaJ
16bbnL
16aaJJ
16gg#XLL
16aaJ
16bbnL
16aaJJ
=407
16gg#XLL
16aaJ
16bbnL
16aaJJ
16gg#XLL
16aaJ
16bbnL
16aaJJ
16gg#XLL
16aaJ
16bbnL
16aaJJ
=408
16ggLL
16aaJ
16bbnL
16aaJJ
16ggLL
16aaJ
16bbnL
16aaJJ
16ggLL
16aaJ
16bbnL
16aaJJ
=409
16ggLL
16aaJ
16bbnL
16aaJJ
16ggLL
16aaJ
16bbnL
16aaJJ
16ggLL
16bbnJ
16aaL
16gg;JJ
=410||
*M2/4
8ff#XL
8ddJ
8ff#XL
8ccnJ 8aa
=411
8bnL [8gg
8ddJ 8gg]
8aL [8ff#X
8ddJ 8ff#]
=412
8g'L 8ee
8bn'J 8dd
8e'L 8cc#X
8g'J 8dd
=413
8c#XL [8ee
8eJ 8ee]
8AL
8aaJ
=414
8ff#XL
8ddJ
8ff#XL
8ccJ 8aa
=415
8bnL [8gg
8ddJ 8gg]
8aL [8ff#X
8ddJ 8ff#]
=416
8g'L 8ee
8bn'J 8ee
[16eLL 16dd
16eJ] 16cc#X
[16gL 16bn
16gJJ] 16cc#X
=417
8f#XL [8dd
8aJ 8dd]
8dL
8aJ
=418
8f#XL
8dJ
8f#XL
8aJ
=419
[8DDL 8Bn [8g
8DDJ_ 8d 8g]
8DDL_ 8A [8f#X
8DDJ_ 8d 8f#]
=420
8DD'L_ 8G 8e
8DD'J_ 8Bn 8d
8DD'L_ 8E 8c#X
8DD'J_ 8G 8d
=421
8DD'L_ 8C#X [8e
8DD'J_ 8E 8e]
8DD'L] 8AA
8aJ
=422
8f#XL
8dJ
8f#XL
8aJ
=423
[8DDL 8Bn [8g
8DDJ_ 8d 8g]
8DDL_ 8A [8f#X
8DDJ_ 8d 8f#]
=424
8DD'L_ 8G 8e
8DD'J_ 8Bn 8e
8DD'L_ 8E 8c#X 8d
16DDL_ [16G 16Bn
16DD'JJ_ 16G] 16c#X
=425
8DD'L_ 8F#X [8d
8DD'J_ 8A 8d]
8DD'L] 8D
8AA'J
=426
8FFL
8DDJ
8FFL
8AAJ
=427
[8BB-L
8BB-J_ 8D
8BB-L] 8F
[8AAJ 8A
=428
8AAL] [8B-
8GGJ 8B-_
8BB-L 8B-]
8DJ [8A
=429
[8E-XL 8A]
8E-J_ 8G
8E-L] 8B-
[8DJ 8d
=430
8DL] [8e-X
8CJ 8e-_
8E-XL 8e-]
8GJ 8d
=431
8AL 8c
8FJ 8f
8GL 8e
8AJ 8e-X
=432
8B-L 8d
8DJ 8f
8E-XL 8c
8CJ 8e-X
=433
8FL 8B-
8EJ 8d
8FL 8A
8FFJ 8c
=434
16BB-LL [16B-
16B-J_
16BB-L 16B-_
16B-JJ]
16BB-LL
16B-J
16BB-L [16ff
16B-JJ 16ff]
=435
16BB-LL [16dd
16B-J 16dd]
16BB-L [16b-
16B-JJ 16b-]
16BB-LL [16dd
16B-J 16dd]
16BB-L [16ff
16B-JJ 16ff]
=436
16BB-LL [16a [16ee [16gg
16B-J 16a_ 16ee_ 16gg_
16BB-L 16a_ 16ee_ 16gg_
16B-JJ 16a_ 16ee_ 16gg_
16BB-LL 16a_ 16ee_ 16gg_
16B-J 16a] 16ee] 16gg]
16BB-L [16b- [16dd [16ff
16B-JJ 16b-] 16dd] 16ff]
=437
16BB-LL [16g [16b- [16ee-X
16B-J 16g] 16b-] 16ee-]
16BB-L [16f [16a [16dd
16B-JJ 16f] 16a] 16dd]
16BB-LL [16e-X [16g [16cc
16B-'J 16e-] 16g] 16cc]
16BB-L [16d [16f [16b-
16B-'JJ 16d] 16f] 16b-]
=438
16BB-LL [16c [16e-X [16b-
16B-J 16c_ 16e-_ 16b-_
16BB-L 16c_ 16e-_ 16b-_
16B-JJ 16c_ 16e-_ 16b-]
16BB-LL 16c_ 16e-_ [16a
16B-J 16c] 16e-] 16a]
16BB-L [16ff
16B-JJ 16ff]
=439
16BB-LL [16dd-X
16B-J 16dd-]
16BB-L [16b-
16B-JJ 16b-]
16BB-LL [16dd-X
16B-J 16dd-]
16BB-L [16ff
16B-JJ 16ff]
=440
16BB-LL [16a [16ee [16gg-X
16B-J 16a_ 16ee_ 16gg-_
16BB-L 16a_ 16ee_ 16gg-_
16B-JJ 16a_ 16ee_ 16gg-_
16BB-LL 16a_ 16ee_ 16gg-_
16B-J 16a] 16ee] 16gg-]
16BB-L [16b- [16dd-X [16ff
16B-JJ 16b-] 16dd-] 16ff]
=441
16EE-XLL [16g-X [16cc [16ff
16E-XJ 16g-_ 16cc_ 16ff]
16EE-XL 16g-_ 16cc_ [16ee-X
16E-XJJ 16g-] 16cc] 16ee-]
16FFLL [16f [16b- [16dd-X
16F'J 16f] 16b-] 16dd-]
16FFL [16e-X [16a [16cc
16F'JJ 16e-] 16a] 16cc]
=442
16BBB-LL [16e-X [16a [16cc
16BB-J 16e-_ 16a_ 16cc_
16BBB-L 16e-_ 16a_ 16cc_
16BB-JJ 16e-] 16a] 16cc]
8BBB-L 8d-X 8f 8b-
8FJ
=443
8D-XL
8BB-J
8D-XL
8FJ
=444
[8G-XL
8G-J_ 8B-
8G-L] 8d-X
8FJ 8f
=445
8E-XL [8g-X
8G-XJ 8g-_
8B-L 8g-_
8dJ 8g-_
=446
[8e-XL 8g-X]
8e-J_ 8b-
8e-L] 8ee-X
8d-XJ 8ff
=447
8cL [8gg-X
8A-XJ 8gg-_
8cL 8gg-]
8e-XJ 8ee-X
=448
[8g-XL 8cc
8g-J_ 8ee-X
8g-L_ 8cc
8g-J] 8a-X
=449
8fL 8dd-X
8A-XJ 8ff
8B-L 8g-X
8G-XJ 8ee-X
=450
8A-XL 8f
8GJ 8dd-X
8A-XL 8e-X
8AA-XJ 8cc
=451
16D-XLL [16f [16dd-X
16d-XJ 16f_ 16dd-_
16D-XL 16f_ 16dd-_
16d-XJJ 16f] 16dd-]
16D-XLL
16d-XJ
16D-XL [16aa-X
16d-XJJ 16aa-]
=452
16D-XLL [16ff
16d-XJ 16ff]
16D-XL [16dd-X
16d-XJJ 16dd-]
16D-XLL [16ff
16d-XJ 16ff]
16D-XL [16aa-X
16d-XJJ 16aa-]
=453
16D-XLL [16cc [16gg-X [16bb-
16d-XJ 16cc_ 16gg-_ 16bb-_
16D-XL 16cc_ 16gg-_ 16bb-_
16d-XJJ 16cc_ 16gg-_ 16bb-_
16D-XLL 16cc_ 16gg-_ 16bb-_
16d-XJ 16cc] 16gg-] 16bb-]
16D-XL [16dd-X [16ff [16aa-X
16d-XJJ 16dd-] 16ff] 16aa-]
=454
16D-XLL [16b- [16dd-X [16gg-X
16d-XJ 16b-] 16dd-] 16gg-]
16D-XL [16a-X [16cc [16ff
16d-XJJ 16a-] 16cc] 16ff]
16D-XLL [16g-X [16b- [16ee-X
16d-X'J 16g-] 16b-] 16ee-]
16D-XL [16f [16a-X [16dd-X
16d-X'JJ 16f] 16a-] 16dd-]
=455
16D-XLL [16e-X [16g-X [16dd-X
16d-XJ 16e-_ 16g-_ 16dd-_
16D-XL 16e-_ 16g-_ 16dd-_
16d-XJJ 16e-_ 16g-_ 16dd-]
16D-XLL 16e-_ 16g-_ [16cc
16d-XJ 16e-] 16g-] 16cc]
16D-XL [16aa-X
16d-XJJ 16aa-]
=456
16D-XLL [16ff
16d-XJ 16ff]
16D-XL [16dd-X
16d-XJJ 16dd-]
16D-XLL [16ff
16d-XJ 16ff]
16D-XL [16aa-X
16d-XJJ 16aa-]
=457
16D-XLL [16cc [16gg-X [16bb-
16d-XJ 16cc_ 16gg-_ 16bb-_
16D-XL 16cc_ 16gg-_ 16bb-_
16d-XJJ 16cc_ 16gg-_ 16bb-_
16D-XLL 16cc_ 16gg-_ 16bb-_
16d-XJ 16cc] 16gg-] 16bb-]
16D-XL [16dd-X [16ff [16aa-X
16d-XJJ 16dd-] 16ff] 16aa-]
=458
16GG-XLL [16b- [16ee-X [16aa-X
16G-XJ 16b-_ 16ee-_ 16aa-]
16GG-XL 16b-_ 16ee-_ [16gg-X
16G-XJJ 16b-] 16ee-] 16gg-]
16AA-XLL [16a-X [16dd-X [16ff
16A-X'J 16a-] 16dd-] 16ff]
16AA-XL [16g-X [16cc [16ee-X
16A-X'JJ 16g-] 16cc] 16ee-]
=459
16DD-XLL [16g-X [16cc [16ee-X
16D-XJ 16g-_ 16cc_ 16ee-_
16DD-XL 16g-_ 16cc_ 16ee-_
16D-XJJ 16g-] 16cc] 16ee-]
8DD-XL 8f 8a-X 8dd-X
8AA-XJ
=460
8FFL
8DD-XJ
8FFL
8AA-XJ
=461
[8BB-L
8BB-J_ 8D-X
8BB-L] 8F
8AA-XJ 8A-X
=462
[8GGL
8GGJ_ 8B- 8b-
8GGL] 8c 8cc
8FFJ 8d-X 8dd-X
=463
[8EEL
8EEJ_ 8d-X 8dd-X
8EEL] 8Bn 8bn
8CJ 8c 8cc
=464
8AA-XL
8FFJ
8AA-XL
8CJ
=465
[8D-XL
8D-J_ 8F 8f
8D-L] 8A-X 8a-X
8CJ 8c 8cc
=466
[8BBnL
8BBJ_ 8a-X 8aa-X
8BBL] 8g 8gg
8BBBnJ 8f 8ff
=467
16CCLL [16e [16ee
16CJ 16e_ 16ee_
16CCL 16e_ 16ee_
16CJJ 16e] 16ee]
16CCLL
16CJ
16CCL [16ccc
16CJJ 16ccc]
=468
16CCLL [16gg
16CJ 16gg]
16CCL [16ee
16CJJ 16ee]
16CCLL [16gg
16CJ 16gg]
16CCL [16ccc
16CJJ 16ccc]
=469
16CCLL [16ff
16CJ 16ff]
16CCL [16cc
16CJJ 16cc]
16CCLL [16ff
16CJ 16ff]
16CCL [16aa-X
16CJJ 16aa-]
=470
16CCLL [16f [16bn
16CJ 16f] 16b_
16CCL [16d 16b_
16CJJ 16d] 16b_
16CCLL [16f 16b_
16CJ 16f] 16b_
16CCL [16a-X 16b_
16CJJ 16a-] 16b]
=471
16CCLL [16e [16cc
16CJ 16e] 16cc_
16CCL [16g 16cc_
16CJJ 16g] 16cc]
16CCLL [16c
16CJ 16c]
16CCL [16ccc
16CJJ 16ccc]
=472
16CCLL [16gg
16CJ 16gg]
16CCL [16ee
16CJJ 16ee]
16CCLL [16gg
16CJ 16gg]
16CCL [16ccc
16CJJ 16ccc]
=473
16CCLL [16ff
16CJ 16ff]
16CCL [16cc
16CJJ 16cc]
16CCLL [16ff
16CJ 16ff]
16CCL [16aa-X
16CJJ 16aa-]
=474
16CCLL [16f [16bn
16CJ 16f] 16b_
16CCL [16d 16b_
16CJJ 16d] 16b_
16CCLL [16f 16b_
16CJ 16f] 16b_
16CCL [16a-X 16b_
16CJJ 16a-] 16b]
=475
16CCLL [16e [16cc
16CJ 16e] 16cc_
16CCL [16g 16cc_
16CJJ 16g] 16cc]
16CCLL [16c
16CJ 16c]
16CCL [16cc
16CJJ 16cc]
=476
16CCLL [16f [16bn
16CJ 16f] 16b_
16CCL [16d 16b_
16CJJ 16d] 16b_
16CCLL [16f 16b_
16CJ 16f] 16b_
16CCL [16a-X 16b_
16CJJ 16a-] 16b]
=477
16CCLL [16e [16cc
16CJ 16e] 16cc_
16CCL [16g 16cc_
16CJJ 16g] 16cc]
16CCLL [16c
16CJ 16c]
16CCL [16cc
16CJJ 16cc]
=478
16CCLL [16f [16bn
16CJ 16f] 16b_
16CCL [16d 16b_
16CJJ 16d] 16b_
16CCLL [16f 16b_
16CJ 16f] 16b_
16CCL [16a-X 16b_
16CJJ 16a-] 16b]
=479
[16CCLL [16C [16e 16cc
16CCJ_ 16C_ 16e_ 16bn
16CCL_ 16C_ 16e_ 16a
16CCJJ] 16C] 16e] 16g
16fLL
16eJ
16dL
16cJJ
=480
[16CLL [16F [16G 16Bn
16CJ_ 16F_ 16G_ 16c
16CL_ 16F_ 16G_ 16d
16C'JJ] 16F] 16G] 16e
[16CLL [16F [16G 16f
16CJ_ 16F_ 16G_ 16g
16CL_ 16F_ 16G_ 16a
16C'JJ] 16F] 16G] 16bn
=481
[16CLL [16E [16G 16cc
16CJ_ 16E_ 16G_ 16dd
16CL_ 16E_ 16G_ 16ee
16CJJ] 16E] 16G] 16ff
16ggLL
16aaJ
16bbnL
16cccJJ
=482
[16CLL [16F [16G [16Bn 16bn
16CJ_ 16F_ 16G_ 16B_ 16cc
16CL_ 16F_ 16G_ 16B_ 16dd
16C'JJ] 16F] 16G] 16B] 16ee
[16CLL [16F [16G [16Bn 16ff
16CJ_ 16F_ 16G_ 16B_ 16gg
16CL_ 16F_ 16G_ 16B_ 16aa
16C'JJ] 16F] 16G] 16B] 16bbn
=483
4C 4E 4G 4c [4ccc
4ccc_
=484
2ccc_
=485
2ccc_
=486
4ccc_
8cccL_
8ccJ 8ccc_
=487
8aL 8ccc_
8fJ 8ccc_
8aL 8ccc_
[8ccJ 8ccc_
=488
[8gL 8cc] 8ccc_
8gJ] [8b- 8ccc_
[8fL 8b-] 8ccc_
8fJ] [8a 8ccc_
=489
[8eL 8a] 8ccc_
8eJ] [8g 8ccc_
[8dL 8g] 8ccc_
8dJ] 8f 8ccc_
=490
[8cL 8f 8ccc_
8cJ] 8e 8ccc_
8gL 8ccc_
8ccJ 8ccc_
=491
8aL 8ccc_
8fJ 8ccc_
8aL 8ccc_
[8ccJ 8ccc_
=492
[8gL 8cc] 8ccc_
8gJ] [8b- 8ccc_
[8fL 8b-] 8ccc_
8fJ] [8a 8ccc]
=493
[8B-L 8a] 8bbn 8ccc [8ddd
8B-J] [8g 8ddd]
[8cL 8g] 8ccc 8ddd [8eee
8cJ] 8b-X 8eee]
=494
8dddL 8eee [8fff
8FJ 8fff]
8AL
8cJ 8cc 8ccc
=495
16fLL [16a [16aa
16FJ 16a] 16aa]
16cL [16f [16ff
16FJJ 16f] 16ff]
16fLL [16a [16aa
16FJ 16a] 16aa]
16e-XL [16cc [16ccc
16FJJ 16cc_ 16ccc_
=496
16dLL 16cc_ 16ccc_
16FJ 16cc] 16ccc]
16eL [16b- [16bb-
16FJJ 16b-_ 16bb-_
16fLL 16b-_ 16bb-_
16FJ 16b-] 16bb-]
16cL [16a [16aa
16FJJ 16a] 16aa]
=497
16B-LL [16g [16gg
16F'J 16g] 16gg]
16AL [16f [16ff
16F'JJ 16f] 16ff]
16GLL [16e [16ee
16F'J 16e] 16ee]
16AL [16f [16ff
16F'JJ 16f] 16ff]
=498
16B-LL [16g [16gg
16FJ 16g_ 16gg_
16cL 16g_ 16gg_
16FJJ 16g] 16gg]
16dLL
16FJ
16eL [16cc [16ccc
16FJJ 16cc] 16ccc]
=499
16fLL [16a [16aa
16FJ 16a] 16aa]
16cL [16f [16ff
16FJJ 16f] 16ff]
16fLL [16a [16aa
16FJ 16a] 16aa]
16e-XL [16cc [16ccc
16FJJ 16cc_ 16ccc_
=500
16dLL 16cc_ 16ccc_
16FJ 16cc] 16ccc]
16eL [16b- [16bb-
16FJJ 16b-_ 16bb-_
16fLL 16b-_ 16bb-_
16FJ 16b-] 16bb-]
16cL [16a [16aa
16FJJ 16a_ 16aa_
=501
16B-LL 16a_ 16aa_
16FJ 16a] 16aa]
16cL [16g [16gg
16F'JJ 16g] 16gg]
16GLL [16d [16dd
16F'J 16d] 16dd]
16B-L [16e [16ee
16F'JJ 16e] 16ee]
=502
8FF'L 8f 8ff
[16FL [16A [16c 16fff
16F'JJ] 16A] 16c] 16eee
[16AALL 16fff
16AA'J] 16eee
[16FL [16A [16c 16ddd
16F'JJ] 16A] 16c] 16ccc
=503
[16CLL 16bb-
16C'J] 16aa
[16GL [16B- [16c 16gg
16G'JJ] 16B-] 16c] 16ff
[16ELL 16ee
16E'J] 16dd
[16GL [16B- [16c 16cc
16G'JJ] 16B-] 16c] 16b-
=504
[16FLL 16a
16F'J] 16b-
[16AL [16c 16bn
16A'JJ] 16c] 16cc
[20DLL 20cc#X
20D_ 20dd
40D'Jk] [40ee-X
[40FKL [40A [40d 40ee-]
20F_ 20A_ 20d_ 20een
20F'JJ] 20A] 20d] 20ff
=505
[16BB-LL 16ff#X
16BB-'J] 16gg
[16GL [16B- [16d 16ff#X
16G'JJ] 16B-] 16d] 16gg
[16CLL 16ffn
16C'J] 16ee
[16GL [16B- [16c 16dd
16G'JJ] 16B-] 16c] 16cc
=506
8FF'L 8ff
[16FL [16A [16c 16fff
16F'JJ] 16A] 16c] 16eee
[16AALL 16fff
16AA'J] 16eee
[16FL [16A [16c 16ddd
16F'JJ] 16A] 16c] 16ccc
=507
[16CLL 16bb-
16C'J] 16aa
[16GL [16B- [16c 16gg
16G'JJ] 16B-] 16c] 16ff
[16ELL 16ee
16E'J] 16dd
[16GL [16B- [16c 16cc
16G'JJ] 16B-] 16c] 16b-
=508
[16FLL 16a
16F'J] 16b-
[16AL [16c 16bn
16A'JJ] 16c] 16cc
[20DLL 20cc#X
20D_ 20dd
40D'Jk] [40ee-X
[40FKL [40A [40d 40ee-]
20F_ 20A_ 20d_ 20een
20F'JJ] 20A] 20d] 20ff
=509
[16BB-LL 16ff#X
16BB-'J] 16gg
[16GL [16B- [16d 16ff#X
16G'JJ] 16B-] 16d] 16gg
[16CLL 16ffn
16C'J] 16ee
[16GL [16B- [16c 16dd
16G'JJ] 16B-] 16c] 16cc
=510
4F 4A 4c 4ff
8r
8ccc
=511
8aaL
8ffJ
8aaL
8cccJ
=512
4C 4G 4B- 4ee
8r
8cc
=513
8gL
8eJ
8gL
8ccJ
=514
4FF 4F 4f
8r
8C 8c
=515
8AAL 8A
8FFJ 8F
8AAL 8A
8CJ 8c
=516
4F 4f
4r
=517
4CC 4C 4ee 4gg 4bb- 4ccc 4eee
4r
=518
4FFF 4FF 4ff 4aa 4ccc 4fff
4r
=519
2r
==
*-
